;FLAVOR:Marlin
;TIME:5535
;Filament used: 2.68228m
;Layer height: 0.16
;MINX:133.5
;MINY:133.5
;MINZ:0.2
;MAXX:181.5
;MAXY:181.5
;MAXZ:14.88
;Generated with Cura_SteamEngine main
M82 ;absolute extrusion mode
; START OF PREHEAT AND HOMEING SEQUENCE
M107 ;Turn off part cooling blowers
M140 S50 ;Start heating bed
M104 S200 ;Start heating extruder

; Home and move to center of the bed
G1 Z2.0 F3000; Move Z Axis up to prevent scratching bed
G28 ;Home
M420 S1 Z2 ; Use ABL to center on the bed
G1 Z62.0 F1000; Move Z Axis up to manual addjust steppers
M190 S50 ;Wait for bed to reach temp before proceeding
M109 S200 ;Wait for extruder to reach temp before proceeding
G28 ;Home and reset leveling
; END OF PREHEAT AND HOMEING SEQUENCE

M201 X500.00 Y500.00 Z100.00 E5000.00 ;Setup machine max acceleration
M203 X500.00 Y500.00 Z10.00 E50.00 ;Setup machine max feedrate
M204 P500.00 R1000.00 T500.00 ;Setup Print/Retract/Travel acceleration
M205 X8.00 Y8.00 Z0.40 E5.00 ;Setup Jerk
M220 S100 ;Reset Feedrate
M221 S100 ;Reset Flowrate
M420 S1 Z2 ;Enable ABL using saved Mesh and Fade Height

G92 E0 ;Reset Extruder
G1 Z2.0 F3000 ;Move Z Axis up
G1 X10.1 Y20 Z0.28 F5000.0 ;Move to start position
G1 X10.1 Y200.0 Z0.28 F1500.0 E15 ;Draw the first line
G1 X10.4 Y200.0 Z0.28 F5000.0 ;Move to side a little
G1 X10.4 Y20 Z0.28 F1500.0 E30 ;Draw the second line
G92 E0 ;Reset Extruder
G1 Z2.0 F3000 ;Move Z Axis up
G92 E0
G92 E0
G1 F2700 E-5
;LAYER_COUNT:90
;LAYER:0
M107
G0 F6000 X136.698 Y136.764 Z0.2
G0 X133.501 Y145.025
;TYPE:SKIRT
G1 F2700 E0
G1 F1200 X133.51 Y144.36 E0.01996
G1 X133.563 Y143.424 E0.0481
G1 X133.695 Y142.495 E0.07627
G1 X133.906 Y141.581 E0.10443
G1 X134.194 Y140.689 E0.13256
G1 X134.557 Y139.824 E0.16072
G1 X134.992 Y138.993 E0.18888
G1 X135.496 Y138.203 E0.21701
G1 X136.066 Y137.458 E0.24516
G1 X136.698 Y136.764 E0.27334
G1 X137.386 Y136.127 E0.30148
G1 X138.126 Y135.551 E0.32963
G1 X138.912 Y135.039 E0.35779
G1 X139.739 Y134.597 E0.38594
G1 X140.601 Y134.227 E0.4141
G1 X141.491 Y133.931 E0.44225
G1 X142.403 Y133.713 E0.4704
G1 X143.33 Y133.572 E0.49854
G1 X144.201 Y133.513 E0.52475
G1 X144.83 Y133.5 E0.54363
G1 X169.951 Y133.501 E1.2977
G1 X170.649 Y133.511 E1.31865
G1 X171.585 Y133.565 E1.34679
G1 X172.513 Y133.697 E1.37493
G1 X173.427 Y133.909 E1.40309
G1 X174.319 Y134.198 E1.43124
G1 X175.184 Y134.561 E1.4594
G1 X176.014 Y134.997 E1.48754
G1 X176.805 Y135.502 E1.51571
G1 X177.549 Y136.073 E1.54386
G1 X178.242 Y136.705 E1.57202
G1 X178.879 Y137.393 E1.60016
G1 X179.454 Y138.134 E1.62832
G1 X179.965 Y138.92 E1.65646
G1 X180.407 Y139.748 E1.68463
G1 X180.776 Y140.61 E1.71278
G1 X181.071 Y141.5 E1.74092
G1 X181.289 Y142.412 E1.76907
G1 X181.429 Y143.34 E1.79724
G1 X181.487 Y144.201 E1.82314
G1 X181.5 Y144.83 E1.84203
G1 X181.499 Y169.9 E2.59456
G1 X181.49 Y170.627 E2.61639
G1 X181.439 Y171.564 E2.64455
G1 X181.307 Y172.492 E2.67269
G1 X181.098 Y173.406 E2.70083
G1 X180.811 Y174.299 E2.72899
G1 X180.449 Y175.165 E2.75716
G1 X180.015 Y175.996 E2.78531
G1 X179.511 Y176.787 E2.81346
G1 X178.942 Y177.532 E2.8416
G1 X178.311 Y178.227 E2.86978
G1 X177.624 Y178.865 E2.89792
G1 X176.885 Y179.442 E2.92606
G1 X176.099 Y179.954 E2.95422
G1 X175.273 Y180.397 E2.98236
G1 X174.411 Y180.769 E3.01054
G1 X173.522 Y181.065 E3.03866
G1 X172.61 Y181.285 E3.06682
G1 X171.683 Y181.426 E3.09497
G1 X170.799 Y181.487 E3.12157
G1 X170.17 Y181.5 E3.14045
G1 X145.065 Y181.499 E3.89404
G1 X144.367 Y181.49 E3.91499
G1 X143.431 Y181.438 E3.94313
G1 X142.502 Y181.306 E3.9713
G1 X141.588 Y181.096 E3.99945
G1 X140.695 Y180.809 E4.0276
G1 X139.83 Y180.446 E4.05576
G1 X138.999 Y180.012 E4.0839
G1 X138.208 Y179.508 E4.11206
G1 X137.463 Y178.938 E4.14021
G1 X136.769 Y178.307 E4.16837
G1 X136.132 Y177.62 E4.19649
G1 X135.555 Y176.88 E4.22466
G1 X135.043 Y176.094 E4.25282
G1 X134.6 Y175.267 E4.28098
G1 X134.229 Y174.406 E4.30912
G1 X133.933 Y173.516 E4.33727
G1 X133.714 Y172.604 E4.36543
G1 X133.573 Y171.677 E4.39357
G1 X133.513 Y170.788 E4.42032
G1 X133.5 Y170.158 E4.43924
G1 X133.501 Y145.025 E5.19366
G0 F6000 X133.901 Y145.031
G1 F1200 X133.91 Y144.366 E5.21362
G1 X133.962 Y143.446 E5.24128
G1 X134.094 Y142.535 E5.26891
G1 X134.305 Y141.639 E5.29654
G1 X134.592 Y140.764 E5.32419
G1 X134.955 Y139.918 E5.35182
G1 X135.389 Y139.106 E5.37946
G1 X135.892 Y138.335 E5.40709
G1 X136.461 Y137.611 E5.43473
G1 X137.089 Y136.939 E5.46234
G1 X137.774 Y136.323 E5.48999
G1 X138.51 Y135.77 E5.51763
G1 X139.291 Y135.282 E5.54527
G1 X140.111 Y134.864 E5.5729
G1 X140.965 Y134.519 E5.60055
G1 X141.845 Y134.249 E5.62818
G1 X142.745 Y134.057 E5.6558
G1 X143.659 Y133.943 E5.68345
G1 X144.212 Y133.913 E5.70007
G1 X144.83 Y133.9 E5.71863
G1 X169.793 Y133.9 E6.46795
G1 X170.643 Y133.911 E6.49347
G1 X171.562 Y133.964 E6.5211
G1 X172.473 Y134.097 E6.54873
G1 X173.369 Y134.308 E6.57636
G1 X174.243 Y134.596 E6.60399
G1 X175.09 Y134.959 E6.63165
G1 X175.901 Y135.394 E6.65927
G1 X176.671 Y135.898 E6.6869
G1 X177.395 Y136.467 E6.71454
G1 X178.067 Y137.097 E6.74219
G1 X178.682 Y137.782 E6.76982
G1 X179.235 Y138.518 E6.79745
G1 X179.722 Y139.299 E6.82508
G1 X180.139 Y140.12 E6.85272
G1 X180.484 Y140.974 E6.88037
G1 X180.753 Y141.854 E6.90799
G1 X180.945 Y142.755 E6.93565
G1 X181.058 Y143.668 E6.96326
G1 X181.087 Y144.212 E6.97961
G1 X181.1 Y144.83 E6.99817
G1 X181.099 Y169.895 E7.75055
G1 X181.09 Y170.622 E7.77237
G1 X181.039 Y171.541 E7.8
G1 X180.908 Y172.453 E7.82766
G1 X180.698 Y173.349 E7.85528
G1 X180.412 Y174.224 E7.88292
G1 X180.051 Y175.071 E7.91055
G1 X179.617 Y175.883 E7.93819
G1 X179.115 Y176.655 E7.96583
G1 X178.547 Y177.38 E7.99348
G1 X177.919 Y178.053 E8.02111
G1 X177.235 Y178.669 E8.04874
G1 X176.5 Y179.223 E8.07637
G1 X175.72 Y179.712 E8.104
G1 X174.9 Y180.131 E8.13164
G1 X174.047 Y180.477 E8.15928
G1 X173.167 Y180.748 E8.18691
G1 X172.267 Y180.941 E8.21454
G1 X171.353 Y181.056 E8.2422
G1 X170.788 Y181.087 E8.25918
G1 X170.17 Y181.1 E8.27774
G1 X145.07 Y181.099 E9.03117
G1 X144.372 Y181.09 E9.05212
G1 X143.453 Y181.038 E9.07975
G1 X142.542 Y180.907 E9.10738
G1 X141.646 Y180.697 E9.13501
G1 X140.771 Y180.41 E9.16265
G1 X139.924 Y180.048 E9.1903
G1 X139.112 Y179.614 E9.21793
G1 X138.341 Y179.112 E9.24555
G1 X137.616 Y178.544 E9.2732
G1 X136.943 Y177.915 E9.30085
G1 X136.328 Y177.231 E9.32846
G1 X135.774 Y176.496 E9.35609
G1 X135.286 Y175.715 E9.38373
G1 X134.867 Y174.895 E9.41137
G1 X134.521 Y174.042 E9.439
G1 X134.251 Y173.162 E9.46663
G1 X134.058 Y172.261 E9.49429
G1 X133.944 Y171.348 E9.52191
G1 X133.913 Y170.777 E9.53908
G1 X133.9 Y170.158 E9.55766
G1 X133.901 Y145.031 E10.3119
G0 F6000 X134.301 Y145.036
G1 F1200 X134.31 Y144.371 E10.33187
G1 X134.362 Y143.469 E10.35899
G1 X134.494 Y142.576 E10.38608
G1 X134.704 Y141.698 E10.41318
G1 X134.991 Y140.841 E10.44031
G1 X135.353 Y140.014 E10.46741
G1 X135.786 Y139.222 E10.49451
G1 X136.288 Y138.471 E10.52162
G1 X136.855 Y137.767 E10.54875
G1 X137.481 Y137.117 E10.57584
G1 X138.162 Y136.524 E10.60295
G1 X138.894 Y135.994 E10.63008
G1 X139.669 Y135.531 E10.65717
G1 X140.482 Y135.138 E10.68428
G1 X141.327 Y134.818 E10.7114
G1 X142.196 Y134.575 E10.73849
G1 X143.084 Y134.409 E10.76561
G1 X144.223 Y134.313 E10.79992
G1 X144.83 Y134.3 E10.81814
G1 X169.793 Y134.3 E11.56746
G1 X170.637 Y134.311 E11.5928
G1 X171.539 Y134.364 E11.61992
G1 X172.432 Y134.496 E11.64702
G1 X173.31 Y134.707 E11.67412
G1 X174.166 Y134.995 E11.70123
G1 X174.993 Y135.357 E11.72833
G1 X175.785 Y135.792 E11.75546
G1 X176.536 Y136.294 E11.78257
G1 X177.239 Y136.861 E11.80968
G1 X177.889 Y137.488 E11.83679
G1 X178.481 Y138.17 E11.8639
G1 X179.011 Y138.901 E11.891
G1 X179.473 Y139.677 E11.91811
G1 X179.866 Y140.49 E11.94522
G1 X180.184 Y141.335 E11.97232
G1 X180.427 Y142.205 E11.99943
G1 X180.592 Y143.093 E12.02654
G1 X180.687 Y144.223 E12.06058
G1 X180.7 Y144.83 E12.07881
G1 X180.699 Y169.89 E12.83104
G1 X180.69 Y170.617 E12.85287
G1 X180.639 Y171.519 E12.87998
G1 X180.508 Y172.413 E12.90711
G1 X180.299 Y173.291 E12.9342
G1 X180.013 Y174.148 E12.96132
G1 X179.652 Y174.976 E12.98843
G1 X179.22 Y175.768 E13.01551
G1 X178.719 Y176.52 E13.04264
G1 X178.153 Y177.224 E13.06975
G1 X177.528 Y177.875 E13.09684
G1 X176.847 Y178.469 E13.12396
G1 X176.116 Y179 E13.15109
G1 X175.342 Y179.464 E13.17817
G1 X174.529 Y179.858 E13.20529
G1 X173.685 Y180.178 E13.23239
G1 X172.815 Y180.423 E13.25952
G1 X171.928 Y180.589 E13.28661
G1 X170.777 Y180.687 E13.32128
G1 X170.17 Y180.7 E13.33951
G1 X145.075 Y180.699 E14.09279
G1 X144.377 Y180.69 E14.11374
G1 X143.476 Y180.639 E14.14083
G1 X142.582 Y180.507 E14.16796
G1 X141.704 Y180.298 E14.19505
G1 X140.847 Y180.011 E14.22218
G1 X140.02 Y179.65 E14.24926
G1 X139.227 Y179.217 E14.27639
G1 X138.476 Y178.716 E14.30348
G1 X137.772 Y178.15 E14.3306
G1 X137.121 Y177.524 E14.35771
G1 X136.528 Y176.843 E14.38482
G1 X135.998 Y176.112 E14.41192
G1 X135.534 Y175.337 E14.43903
G1 X135.14 Y174.524 E14.46615
G1 X134.82 Y173.68 E14.49325
G1 X134.576 Y172.81 E14.52037
G1 X134.41 Y171.922 E14.54749
G1 X134.313 Y170.767 E14.58228
G1 X134.3 Y170.158 E14.60056
G1 X134.301 Y145.036 E15.35466
G1 F2700 E10.35466
;MESH:Bender.stl
G0 F6000 X143.835 Y145.036
G0 X144.92 Y145.036
G0 X145.501 Y169.499
;TYPE:WALL-INNER
G1 F2700 E15.35466
G1 F1200 X169.5 Y169.5 E16.07504
G1 X169.5 Y145.5 E16.79545
G1 X145.501 Y145.501 E17.51584
G1 X145.501 Y169.499 E18.23619
G0 F6000 X145.101 Y169.899
G1 F1200 X169.9 Y169.9 E18.98059
G1 X169.9 Y145.1 E19.72502
G1 X145.101 Y145.101 E20.46942
G1 X145.101 Y169.899 E21.21379
G0 F6000 X144.701 Y170.299
;TYPE:WALL-OUTER
G1 F1200 X170.3 Y170.3 E21.9822
G1 X170.3 Y144.7 E22.75064
G1 X144.701 Y144.701 E23.51905
G1 X144.701 Y170.299 E24.28744
G1 F2700 E19.28744
G0 F6000 X144.97 Y170.03
G0 X157.295 Y170.08
G0 X157.352 Y161.312
G0 X157.295 Y161.138
;TYPE:WALL-INNER
G1 F2700 E24.28744
G1 F1200 X156.608 Y161.018 E24.30837
G1 X156.058 Y160.829 E24.32583
G1 X155.441 Y160.507 E24.34672
G1 X154.919 Y160.048 E24.36758
G1 X154.55 Y159.613 E24.38471
G1 X154.264 Y159.143 E24.40122
G1 X153.994 Y158.494 E24.42232
G1 X153.884 Y157.796 E24.44353
G1 X153.883 Y157.301 E24.45839
G1 X153.894 Y157.145 E24.46308
G1 X153.985 Y156.554 E24.48103
G1 X154.247 Y155.889 E24.50249
G1 X154.616 Y155.274 E24.52402
G1 X155.103 Y154.776 E24.54492
G1 X155.552 Y154.438 E24.56179
G1 X156.051 Y154.175 E24.57873
G1 X156.576 Y153.99 E24.59544
G1 X157.277 Y153.864 E24.61681
G1 X158.135 Y153.912 E24.64261
G1 X158.903 Y154.144 E24.66669
G1 X159.662 Y154.567 E24.69277
G1 X160.18 Y155.054 E24.71412
G1 X160.525 Y155.496 E24.73095
G1 X160.878 Y156.145 E24.75312
G1 X161.098 Y156.946 E24.77806
G1 X161.126 Y157.641 E24.79894
G1 X161.062 Y158.18 E24.81523
G1 X160.876 Y158.868 E24.83662
G1 X160.465 Y159.616 E24.86224
G1 X160.019 Y160.108 E24.88218
G1 X159.566 Y160.483 E24.89983
G1 X159.079 Y160.767 E24.91675
G1 X158.558 Y160.972 E24.93356
G1 X158.001 Y161.095 E24.95068
G1 X157.295 Y161.138 E24.97191
G0 F6000 X157.318 Y160.732
G1 F1200 X156.708 Y160.629 E24.99048
G1 X156.221 Y160.462 E25.00593
G1 X155.673 Y160.171 E25.02456
G1 X155.201 Y159.764 E25.04327
G1 X154.875 Y159.376 E25.05848
G1 X154.618 Y158.954 E25.07331
G1 X154.386 Y158.383 E25.09181
G1 X154.284 Y157.766 E25.11058
G1 X154.283 Y157.3 E25.12457
G1 X154.29 Y157.206 E25.1274
G1 X154.382 Y156.631 E25.14488
G1 X154.61 Y156.061 E25.16331
G1 X154.938 Y155.523 E25.18222
G1 X155.364 Y155.081 E25.20065
G1 X155.771 Y154.775 E25.21593
G1 X156.17 Y154.564 E25.22948
G1 X156.677 Y154.378 E25.24569
G1 X157.305 Y154.265 E25.26485
G1 X158.065 Y154.308 E25.2877
G1 X158.772 Y154.526 E25.3099
G1 X159.422 Y154.896 E25.33235
G1 X159.854 Y155.297 E25.35005
G1 X160.189 Y155.716 E25.36615
G1 X160.493 Y156.27 E25.38512
G1 X160.695 Y156.987 E25.40748
G1 X160.724 Y157.599 E25.42587
G1 X160.668 Y158.111 E25.44133
G1 X160.497 Y158.72 E25.46032
G1 X160.136 Y159.384 E25.48301
G1 X159.733 Y159.828 E25.501
G1 X159.337 Y160.154 E25.5164
G1 X158.9 Y160.408 E25.53157
G1 X158.437 Y160.59 E25.54651
G1 X157.971 Y160.692 E25.56083
G1 X157.318 Y160.732 E25.58046
G0 F6000 X157.317 Y160.33
;TYPE:WALL-OUTER
G1 F1200 X156.817 Y160.242 E25.5957
G1 X156.394 Y160.099 E25.60911
G1 X155.92 Y159.854 E25.62512
G1 X155.483 Y159.48 E25.64239
G1 X155.209 Y159.153 E25.65519
G1 X154.972 Y158.762 E25.66892
G1 X154.771 Y158.274 E25.68476
G1 X154.686 Y157.746 E25.70081
G1 X154.683 Y157.299 E25.71423
G1 X154.768 Y156.738 E25.73126
G1 X154.963 Y156.255 E25.7469
G1 X155.254 Y155.768 E25.76393
G1 X155.622 Y155.39 E25.77976
G1 X155.972 Y155.124 E25.79296
G1 X156.384 Y154.906 E25.80695
G1 X156.767 Y154.771 E25.81914
G1 X157.307 Y154.671 E25.83563
G1 X157.995 Y154.705 E25.8563
G1 X158.614 Y154.894 E25.87573
G1 X159.184 Y155.218 E25.89541
G1 X159.595 Y155.605 E25.91236
G1 X159.845 Y155.925 E25.92455
G1 X160.123 Y156.423 E25.94167
G1 X160.3 Y157.05 E25.96122
G1 X160.324 Y157.599 E25.97772
G1 X160.274 Y158.042 E25.9911
G1 X160.127 Y158.568 E26.00749
G1 X159.809 Y159.15 E26.0274
G1 X159.447 Y159.548 E26.04355
G1 X159.117 Y159.816 E26.05631
G1 X158.713 Y160.052 E26.07036
G1 X158.337 Y160.2 E26.08249
G1 X157.902 Y160.298 E26.09587
G1 X157.317 Y160.33 E26.11346
G0 F6000 X157.196 Y161.017
G0 X157.284 Y161.499
;TYPE:SKIN
G1 F1200 X156.501 Y161.363 E26.13731
G1 X155.923 Y161.163 E26.15567
G1 X155.288 Y160.833 E26.17715
G1 X154.65 Y160.296 E26.20219
G1 X154.258 Y159.823 E26.22063
G1 X153.94 Y159.301 E26.23897
G1 X153.637 Y158.564 E26.26289
G1 X153.526 Y157.836 E26.285
G1 X153.523 Y157.214 E26.30367
G1 X153.643 Y156.44 E26.32718
G1 X153.913 Y155.751 E26.34939
G1 X154.319 Y155.068 E26.37324
G1 X154.876 Y154.494 E26.39725
G1 X155.387 Y154.115 E26.41635
G1 X155.913 Y153.842 E26.43414
G1 X156.472 Y153.643 E26.45195
G1 X157.128 Y153.526 E26.47195
G1 X157.422 Y153.51 E26.48079
G1 X158.056 Y153.547 E26.49985
G1 X158.333 Y153.595 E26.50829
G1 X159.053 Y153.812 E26.53086
G1 X159.885 Y154.282 E26.55955
G1 X160.43 Y154.792 E26.58195
G1 X160.818 Y155.285 E26.60079
G1 X161.214 Y155.995 E26.62519
G1 X161.451 Y156.868 E26.65234
G1 X161.485 Y157.665 E26.67629
G1 X161.413 Y158.28 E26.69487
G1 X161.197 Y159.035 E26.71845
G1 X160.767 Y159.815 E26.74518
G1 X160.224 Y160.416 E26.7695
G1 X159.765 Y160.784 E26.78715
G1 X159.25 Y161.084 E26.80505
G1 X158.647 Y161.324 E26.82453
G1 X158.059 Y161.451 E26.84258
G1 X157.284 Y161.499 E26.86589
G1 F2700 E21.86589
G0 F6000 X157.288 Y161.231
G0 X155.911 Y160.955
G0 X151.442 Y169.299
G0 X145.673 Y169.327
G1 F2700 E26.86589
G0 F6000 X145.862 Y169.138
G1 F1200 X169.14 Y169.14 E27.56463
G1 X169.14 Y145.86 E28.26344
G1 X145.861 Y145.861 E28.96221
G1 X145.861 Y151.03 E29.11737
G1 X145.862 Y169.138 E29.66092
G0 F6000 X146.309 Y168.937
G1 F1200 X146.061 Y168.688 E29.67147
G0 F6000 X146.061 Y168.123
G1 F1200 X146.875 Y168.937 E29.70602
G0 F6000 X147.44 Y168.937
G1 F1200 X146.061 Y167.557 E29.76459
G0 F6000 X146.061 Y166.991
G1 F1200 X148.006 Y168.937 E29.84717
G0 F6000 X148.572 Y168.937
G1 F1200 X146.061 Y166.426 E29.95377
G0 F6000 X146.061 Y165.86
G1 F1200 X149.138 Y168.937 E30.08439
G0 F6000 X149.703 Y168.937
G1 F1200 X146.061 Y165.294 E30.23902
G0 F6000 X146.061 Y164.729
G1 F1200 X150.269 Y168.937 E30.41765
G0 F6000 X150.835 Y168.937
G1 F1200 X146.061 Y164.163 E30.62031
G0 F6000 X146.061 Y163.597
G1 F1200 X151.4 Y168.937 E30.84698
G0 F6000 X151.967 Y168.937
G1 F1200 X146.061 Y163.031 E31.09769
G0 F6000 X146.061 Y162.466
G1 F1200 X152.532 Y168.937 E31.37239
G0 F6000 X153.098 Y168.937
G1 F1200 X146.061 Y161.9 E31.67112
G0 F6000 X146.061 Y161.334
G1 F1200 X153.664 Y168.937 E31.99387
G0 F6000 X154.229 Y168.937
G1 F1200 X146.061 Y160.769 E32.34061
G0 F6000 X146.061 Y160.203
G1 F1200 X154.795 Y168.937 E32.71137
G0 F6000 X155.361 Y168.937
G1 F1200 X146.061 Y159.637 E33.10617
G0 F6000 X146.061 Y159.072
G1 F1200 X155.926 Y168.937 E33.52494
G0 F6000 X156.492 Y168.937
G1 F1200 X146.061 Y158.506 E33.96775
G0 F6000 X146.061 Y157.94
G1 F1200 X157.058 Y168.937 E34.43458
G0 F6000 X157.624 Y168.938
G1 F1200 X146.06 Y157.374 E34.92548
G0 F6000 X146.06 Y156.808
G1 F1200 X158.19 Y168.938 E35.44041
G0 F6000 X158.756 Y168.938
G1 F1200 X146.06 Y156.243 E35.97934
G0 F6000 X146.06 Y155.677
