;FLAVOR:Marlin
;TIME:3072
;Filament used: 1.61661m
;Layer height: 0.16
;MINX:133.5
;MINY:133.5
;MINZ:0.2
;MAXX:181.5
;MAXY:181.5
;MAXZ:14.88
;Generated with Cura_SteamEngine main
M82 ;absolute extrusion mode
; START OF PREHEAT AND HOMEING SEQUENCE
M107 ;Turn off part cooling blowers
M140 S50 ;Start heating bed
M104 S200 ;Start heating extruder

; Home and move to center of the bed
G1 Z2.0 F3000; Move Z Axis up to prevent scratching bed
G28 ;Home
M420 S1 Z2 ; Use ABL to center on the bed
G1 Z62.0 F1000; Move Z Axis up to manual addjust steppers
M190 S50 ;Wait for bed to reach temp before proceeding
M109 S200 ;Wait for extruder to reach temp before proceeding
G28 ;Home and reset leveling
; END OF PREHEAT AND HOMEING SEQUENCE

M201 X500.00 Y500.00 Z100.00 E5000.00 ;Setup machine max acceleration
M203 X500.00 Y500.00 Z10.00 E50.00 ;Setup machine max feedrate
M204 P500.00 R1000.00 T500.00 ;Setup Print/Retract/Travel acceleration
M205 X8.00 Y8.00 Z0.40 E5.00 ;Setup Jerk
M220 S100 ;Reset Feedrate
M221 S100 ;Reset Flowrate
M420 S1 Z2 ;Enable ABL using saved Mesh and Fade Height

G92 E0 ;Reset Extruder
G1 Z2.0 F3000 ;Move Z Axis up
G1 X10.1 Y20 Z0.28 F5000.0 ;Move to start position
G1 X10.1 Y200.0 Z0.28 F1500.0 E15 ;Draw the first line
G1 X10.4 Y200.0 Z0.28 F5000.0 ;Move to side a little
G1 X10.4 Y20 Z0.28 F1500.0 E30 ;Draw the second line
G92 E0 ;Reset Extruder
G1 Z2.0 F3000 ;Move Z Axis up
G92 E0
G92 E0
G1 F2700 E-5
;LAYER_COUNT:90
;LAYER:0
M107
G0 F6000 X136.698 Y136.764 Z0.2
G0 X133.501 Y145.025
;TYPE:SKIRT
G1 F2700 E0
G1 F1200 X133.51 Y144.36 E0.02101
G1 X133.563 Y143.424 E0.05064
G1 X133.695 Y142.495 E0.08028
G1 X133.906 Y141.581 E0.10992
G1 X134.194 Y140.689 E0.13954
G1 X134.557 Y139.824 E0.16918
G1 X134.992 Y138.993 E0.19882
G1 X135.496 Y138.203 E0.22843
G1 X136.066 Y137.458 E0.25807
G1 X136.698 Y136.764 E0.28773
G1 X137.386 Y136.127 E0.31735
G1 X138.126 Y135.551 E0.34698
G1 X138.912 Y135.039 E0.37662
G1 X139.739 Y134.597 E0.40625
G1 X140.601 Y134.227 E0.43589
G1 X141.491 Y133.931 E0.46553
G1 X142.403 Y133.713 E0.49515
G1 X143.33 Y133.572 E0.52478
G1 X144.201 Y133.513 E0.55237
G1 X144.83 Y133.5 E0.57225
G1 X169.951 Y133.501 E1.366
G1 X170.649 Y133.511 E1.38805
G1 X171.585 Y133.565 E1.41768
G1 X172.513 Y133.697 E1.4473
G1 X173.427 Y133.909 E1.47694
G1 X174.319 Y134.198 E1.50657
G1 X175.184 Y134.561 E1.53621
G1 X176.014 Y134.997 E1.56583
G1 X176.805 Y135.502 E1.59549
G1 X177.549 Y136.073 E1.62512
G1 X178.242 Y136.705 E1.65475
G1 X178.879 Y137.393 E1.68438
G1 X179.454 Y138.134 E1.71402
G1 X179.965 Y138.92 E1.74364
G1 X180.407 Y139.748 E1.7733
G1 X180.776 Y140.61 E1.80292
G1 X181.071 Y141.5 E1.83255
G1 X181.289 Y142.412 E1.86218
G1 X181.429 Y143.34 E1.89183
G1 X181.487 Y144.201 E1.9191
G1 X181.5 Y144.83 E1.93898
G1 X181.499 Y169.9 E2.73112
G1 X181.49 Y170.627 E2.75409
G1 X181.439 Y171.564 E2.78374
G1 X181.307 Y172.492 E2.81336
G1 X181.098 Y173.406 E2.84298
G1 X180.811 Y174.299 E2.87262
G1 X180.449 Y175.165 E2.90228
G1 X180.015 Y175.996 E2.9319
G1 X179.511 Y176.787 E2.96154
G1 X178.942 Y177.532 E2.99116
G1 X178.311 Y178.227 E3.02082
G1 X177.624 Y178.865 E3.05044
G1 X176.885 Y179.442 E3.08007
G1 X176.099 Y179.954 E3.10971
G1 X175.273 Y180.397 E3.13932
G1 X174.411 Y180.769 E3.16899
G1 X173.522 Y181.065 E3.19859
G1 X172.61 Y181.285 E3.22824
G1 X171.683 Y181.426 E3.25786
G1 X170.799 Y181.487 E3.28586
G1 X170.17 Y181.5 E3.30574
G1 X145.065 Y181.499 E4.09899
G1 X144.367 Y181.49 E4.12104
G1 X143.431 Y181.438 E4.15066
G1 X142.502 Y181.306 E4.18031
G1 X141.588 Y181.096 E4.20994
G1 X140.695 Y180.809 E4.23958
G1 X139.83 Y180.446 E4.26922
G1 X138.999 Y180.012 E4.29884
G1 X138.208 Y179.508 E4.32848
G1 X137.463 Y178.938 E4.35812
G1 X136.769 Y178.307 E4.38776
G1 X136.132 Y177.62 E4.41736
G1 X135.555 Y176.88 E4.44701
G1 X135.043 Y176.094 E4.47665
G1 X134.6 Y175.267 E4.50629
G1 X134.229 Y174.406 E4.53592
G1 X133.933 Y173.516 E4.56555
G1 X133.714 Y172.604 E4.59519
G1 X133.573 Y171.677 E4.62481
G1 X133.513 Y170.788 E4.65297
G1 X133.5 Y170.158 E4.67288
G1 X133.501 Y145.025 E5.46701
G0 F6000 X133.901 Y145.031
G1 F1200 X133.91 Y144.366 E5.48802
G1 X133.962 Y143.446 E5.51714
G1 X134.094 Y142.535 E5.54622
G1 X134.305 Y141.639 E5.57531
G1 X134.592 Y140.764 E5.60441
G1 X134.955 Y139.918 E5.6335
G1 X135.389 Y139.106 E5.66259
G1 X135.892 Y138.335 E5.69167
G1 X136.461 Y137.611 E5.72077
G1 X137.089 Y136.939 E5.74983
G1 X137.774 Y136.323 E5.77894
G1 X138.51 Y135.77 E5.80803
G1 X139.291 Y135.282 E5.83713
G1 X140.111 Y134.864 E5.86621
G1 X140.965 Y134.519 E5.89531
G1 X141.845 Y134.249 E5.9244
G1 X142.745 Y134.057 E5.95347
G1 X143.659 Y133.943 E5.98258
G1 X144.212 Y133.913 E6.00008
G1 X144.83 Y133.9 E6.01961
G1 X169.793 Y133.9 E6.80837
G1 X170.643 Y133.911 E6.83523
G1 X171.562 Y133.964 E6.86431
G1 X172.473 Y134.097 E6.8934
G1 X173.369 Y134.308 E6.92249
G1 X174.243 Y134.596 E6.95156
G1 X175.09 Y134.959 E6.98068
G1 X175.901 Y135.394 E7.00976
G1 X176.671 Y135.898 E7.03884
G1 X177.395 Y136.467 E7.06793
G1 X178.067 Y137.097 E7.09704
G1 X178.682 Y137.782 E7.12613
G1 X179.235 Y138.518 E7.15522
G1 X179.722 Y139.299 E7.1843
G1 X180.139 Y140.12 E7.21339
G1 X180.484 Y140.974 E7.2425
G1 X180.753 Y141.854 E7.27157
G1 X180.945 Y142.755 E7.30068
G1 X181.058 Y143.668 E7.32975
G1 X181.087 Y144.212 E7.34696
G1 X181.1 Y144.83 E7.36649
G1 X181.099 Y169.895 E8.15847
G1 X181.09 Y170.622 E8.18145
G1 X181.039 Y171.541 E8.21053
G1 X180.908 Y172.453 E8.23964
G1 X180.698 Y173.349 E8.26872
G1 X180.412 Y174.224 E8.29781
G1 X180.051 Y175.071 E8.3269
G1 X179.617 Y175.883 E8.35599
G1 X179.115 Y176.655 E8.38509
G1 X178.547 Y177.38 E8.41419
G1 X177.919 Y178.053 E8.44327
G1 X177.235 Y178.669 E8.47236
G1 X176.5 Y179.223 E8.50144
G1 X175.72 Y179.712 E8.53053
G1 X174.9 Y180.131 E8.55963
G1 X174.047 Y180.477 E8.58871
G1 X173.167 Y180.748 E8.6178
G1 X172.267 Y180.941 E8.64689
G1 X171.353 Y181.056 E8.676
G1 X170.788 Y181.087 E8.69388
G1 X170.17 Y181.1 E8.71341
G1 X145.07 Y181.099 E9.50649
G1 X144.372 Y181.09 E9.52855
G1 X143.453 Y181.038 E9.55764
G1 X142.542 Y180.907 E9.58672
G1 X141.646 Y180.697 E9.61579
G1 X140.771 Y180.41 E9.64489
G1 X139.924 Y180.048 E9.674
G1 X139.112 Y179.614 E9.70309
G1 X138.341 Y179.112 E9.73216
G1 X137.616 Y178.544 E9.76126
G1 X136.943 Y177.915 E9.79037
G1 X136.328 Y177.231 E9.81943
G1 X135.774 Y176.496 E9.84851
G1 X135.286 Y175.715 E9.87761
G1 X134.867 Y174.895 E9.90671
G1 X134.521 Y174.042 E9.93579
G1 X134.251 Y173.162 E9.96488
G1 X134.058 Y172.261 E9.99399
G1 X133.944 Y171.348 E10.02306
G1 X133.913 Y170.777 E10.04113
G1 X133.9 Y170.158 E10.06069
G1 X133.901 Y145.031 E10.85464
G0 F6000 X134.301 Y145.036
G1 F1200 X134.31 Y144.371 E10.87565
G1 X134.362 Y143.469 E10.9042
G1 X134.494 Y142.576 E10.93272
G1 X134.704 Y141.698 E10.96125
G1 X134.991 Y140.841 E10.9898
G1 X135.353 Y140.014 E11.01833
G1 X135.786 Y139.222 E11.04685
G1 X136.288 Y138.471 E11.07539
G1 X136.855 Y137.767 E11.10395
G1 X137.481 Y137.117 E11.13247
G1 X138.162 Y136.524 E11.161
G1 X138.894 Y135.994 E11.18955
G1 X139.669 Y135.531 E11.21808
G1 X140.482 Y135.138 E11.24661
G1 X141.327 Y134.818 E11.27516
G1 X142.196 Y134.575 E11.30367
G1 X143.084 Y134.409 E11.33222
G1 X144.223 Y134.313 E11.36833
G1 X144.83 Y134.3 E11.38752
G1 X169.793 Y134.3 E12.17628
G1 X170.637 Y134.311 E12.20295
G1 X171.539 Y134.364 E12.2315
G1 X172.432 Y134.496 E12.26002
G1 X173.31 Y134.707 E12.28855
G1 X174.166 Y134.995 E12.31709
G1 X174.993 Y135.357 E12.34561
G1 X175.785 Y135.792 E12.37416
G1 X176.536 Y136.294 E12.40271
G1 X177.239 Y136.861 E12.43124
G1 X177.889 Y137.488 E12.45978
G1 X178.481 Y138.17 E12.48831
G1 X179.011 Y138.901 E12.51684
G1 X179.473 Y139.677 E12.54538
G1 X179.866 Y140.49 E12.57391
G1 X180.184 Y141.335 E12.60244
G1 X180.427 Y142.205 E12.63098
G1 X180.592 Y143.093 E12.65952
G1 X180.687 Y144.223 E12.69535
G1 X180.7 Y144.83 E12.71454
G1 X180.699 Y169.89 E13.50636
G1 X180.69 Y170.617 E13.52933
G1 X180.639 Y171.519 E13.55788
G1 X180.508 Y172.413 E13.58643
G1 X180.299 Y173.291 E13.61495
G1 X180.013 Y174.148 E13.64349
G1 X179.652 Y174.976 E13.67203
G1 X179.22 Y175.768 E13.70054
G1 X178.719 Y176.52 E13.72909
G1 X178.153 Y177.224 E13.75763
G1 X177.528 Y177.875 E13.78615
G1 X176.847 Y178.469 E13.8147
G1 X176.116 Y179 E13.84325
G1 X175.342 Y179.464 E13.87176
G1 X174.529 Y179.858 E13.90031
G1 X173.685 Y180.178 E13.92883
G1 X172.815 Y180.423 E13.95739
G1 X171.928 Y180.589 E13.9859
G1 X170.777 Y180.687 E14.0224
G1 X170.17 Y180.7 E14.04158
G1 X145.075 Y180.699 E14.83451
G1 X144.377 Y180.69 E14.85657
G1 X143.476 Y180.639 E14.88509
G1 X142.582 Y180.507 E14.91364
G1 X141.704 Y180.298 E14.94216
G1 X140.847 Y180.011 E14.97071
G1 X140.02 Y179.65 E14.99923
G1 X139.227 Y179.217 E15.02777
G1 X138.476 Y178.716 E15.0563
G1 X137.772 Y178.15 E15.08484
G1 X137.121 Y177.524 E15.11338
G1 X136.528 Y176.843 E15.14191
G1 X135.998 Y176.112 E15.17044
G1 X135.534 Y175.337 E15.19898
G1 X135.14 Y174.524 E15.22753
G1 X134.82 Y173.68 E15.25605
G1 X134.576 Y172.81 E15.2846
G1 X134.41 Y171.922 E15.31314
G1 X134.313 Y170.767 E15.34977
G1 X134.3 Y170.158 E15.36901
G1 X134.301 Y145.036 E16.1628
G1 F2700 E11.1628
;MESH:BENDER.stl
G0 F6000 X143.835 Y145.036
G0 X144.92 Y145.036
G0 X145.501 Y169.499
;TYPE:WALL-INNER
G1 F2700 E16.1628
G1 F1200 X169.5 Y169.5 E16.9211
G1 X169.5 Y145.5 E17.67943
G1 X145.501 Y145.501 E18.43773
G1 X145.501 Y169.499 E19.19599
G0 F6000 X145.101 Y169.899
G1 F1200 X169.9 Y169.9 E19.97957
G1 X169.9 Y145.1 E20.76318
G1 X145.101 Y145.101 E21.54676
G1 X145.101 Y169.899 E22.3303
G0 F6000 X144.701 Y170.299
;TYPE:WALL-OUTER
G1 F1200 X170.3 Y170.3 E23.13916
G1 X170.3 Y144.7 E23.94804
G1 X144.701 Y144.701 E24.7569
G1 X144.701 Y170.299 E25.56572
G1 F2700 E20.56572
G0 F6000 X144.97 Y170.03
G0 X157.295 Y170.08
G0 X157.352 Y161.312
G0 X157.295 Y161.138
;TYPE:WALL-INNER
G1 F2700 E25.56572
G1 F1200 X156.608 Y161.018 E25.58776
G1 X156.058 Y160.829 E25.60613
G1 X155.441 Y160.507 E25.62812
G1 X154.919 Y160.048 E25.65009
G1 X154.55 Y159.613 E25.66811
G1 X154.264 Y159.143 E25.6855
G1 X153.994 Y158.494 E25.70771
G1 X153.884 Y157.796 E25.73003
G1 X153.883 Y157.301 E25.74567
G1 X153.894 Y157.145 E25.75061
G1 X153.985 Y156.554 E25.76951
G1 X154.247 Y155.889 E25.79209
G1 X154.616 Y155.274 E25.81475
G1 X155.103 Y154.776 E25.83676
G1 X155.552 Y154.438 E25.85452
G1 X156.051 Y154.175 E25.87234
G1 X156.576 Y153.99 E25.88993
G1 X157.277 Y153.864 E25.91244
G1 X158.135 Y153.912 E25.93959
G1 X158.903 Y154.144 E25.96494
G1 X159.662 Y154.567 E25.99239
G1 X160.18 Y155.054 E26.01486
G1 X160.525 Y155.496 E26.03258
G1 X160.878 Y156.145 E26.05592
G1 X161.098 Y156.946 E26.08217
G1 X161.126 Y157.641 E26.10414
G1 X161.062 Y158.18 E26.12129
G1 X160.876 Y158.868 E26.14381
G1 X160.465 Y159.616 E26.17078
G1 X160.019 Y160.108 E26.19176
G1 X159.566 Y160.483 E26.21034
G1 X159.079 Y160.767 E26.22816
G1 X158.558 Y160.972 E26.24585
G1 X158.001 Y161.095 E26.26387
G1 X157.295 Y161.138 E26.28622
G0 F6000 X157.318 Y160.732
G1 F1200 X156.708 Y160.629 E26.30577
G1 X156.221 Y160.462 E26.32204
G1 X155.673 Y160.171 E26.34164
G1 X155.201 Y159.764 E26.36133
G1 X154.875 Y159.376 E26.37735
G1 X154.618 Y158.954 E26.39296
G1 X154.386 Y158.383 E26.41243
G1 X154.284 Y157.766 E26.43219
G1 X154.283 Y157.3 E26.44692
G1 X154.29 Y157.206 E26.4499
G1 X154.382 Y156.631 E26.46829
G1 X154.61 Y156.061 E26.48769
G1 X154.938 Y155.523 E26.5076
G1 X155.364 Y155.081 E26.527
G1 X155.771 Y154.775 E26.54309
G1 X156.17 Y154.564 E26.55735
G1 X156.677 Y154.378 E26.57441
G1 X157.305 Y154.265 E26.59457
G1 X158.065 Y154.308 E26.61863
G1 X158.772 Y154.526 E26.642
G1 X159.422 Y154.896 E26.66564
G1 X159.854 Y155.297 E26.68426
G1 X160.189 Y155.716 E26.70121
G1 X160.493 Y156.27 E26.72118
G1 X160.695 Y156.987 E26.74472
G1 X160.724 Y157.599 E26.76407
G1 X160.668 Y158.111 E26.78035
G1 X160.497 Y158.72 E26.80034
G1 X160.136 Y159.384 E26.82422
G1 X159.733 Y159.828 E26.84316
G1 X159.337 Y160.154 E26.85937
G1 X158.9 Y160.408 E26.87534
G1 X158.437 Y160.59 E26.89106
G1 X157.971 Y160.692 E26.90613
G1 X157.318 Y160.732 E26.9268
G0 F6000 X157.317 Y160.33
;TYPE:WALL-OUTER
G1 F1200 X156.817 Y160.242 E26.94285
G1 X156.394 Y160.099 E26.95695
G1 X155.92 Y159.854 E26.97381
G1 X155.483 Y159.48 E26.99199
G1 X155.209 Y159.153 E27.00547
G1 X154.972 Y158.762 E27.01991
G1 X154.771 Y158.274 E27.03659
G1 X154.686 Y157.746 E27.05349
G1 X154.683 Y157.299 E27.06761
G1 X154.768 Y156.738 E27.08554
G1 X154.963 Y156.255 E27.102
G1 X155.254 Y155.768 E27.11993
G1 X155.622 Y155.39 E27.13659
G1 X155.972 Y155.124 E27.15048
G1 X156.384 Y154.906 E27.16521
G1 X156.767 Y154.771 E27.17804
G1 X157.307 Y154.671 E27.1954
G1 X157.995 Y154.705 E27.21716
G1 X158.614 Y154.894 E27.23761
G1 X159.184 Y155.218 E27.25833
G1 X159.595 Y155.605 E27.27617
G1 X159.845 Y155.925 E27.289
G1 X160.123 Y156.423 E27.30702
G1 X160.3 Y157.05 E27.3276
G1 X160.324 Y157.599 E27.34497
G1 X160.274 Y158.042 E27.35905
G1 X160.127 Y158.568 E27.37631
G1 X159.809 Y159.15 E27.39727
G1 X159.447 Y159.548 E27.41427
G1 X159.117 Y159.816 E27.4277
G1 X158.713 Y160.052 E27.44248
G1 X158.337 Y160.2 E27.45525
G1 X157.902 Y160.298 E27.46934
G1 X157.317 Y160.33 E27.48785
G0 F6000 X157.196 Y161.017
G0 X157.284 Y161.499
;TYPE:SKIN
G1 F1200 X156.501 Y161.363 E27.51296
G1 X155.923 Y161.163 E27.53229
G1 X155.288 Y160.833 E27.5549
G1 X154.65 Y160.296 E27.58125
G1 X154.258 Y159.823 E27.60066
G1 X153.94 Y159.301 E27.61997
G1 X153.637 Y158.564 E27.64515
G1 X153.526 Y157.836 E27.66842
G1 X153.523 Y157.214 E27.68807
G1 X153.643 Y156.44 E27.71282
G1 X153.913 Y155.751 E27.7362
G1 X154.319 Y155.068 E27.76131
G1 X154.876 Y154.494 E27.78658
G1 X155.387 Y154.115 E27.80668
G1 X155.913 Y153.842 E27.82541
G1 X156.472 Y153.643 E27.84416
G1 X157.128 Y153.526 E27.86521
G1 X157.422 Y153.51 E27.87452
G1 X158.056 Y153.547 E27.89458
G1 X158.333 Y153.595 E27.90347
G1 X159.053 Y153.812 E27.92723
G1 X159.885 Y154.282 E27.95742
G1 X160.43 Y154.792 E27.981
G1 X160.818 Y155.285 E28.00083
G1 X161.214 Y155.995 E28.02651
G1 X161.451 Y156.868 E28.0551
G1 X161.485 Y157.665 E28.0803
G1 X161.413 Y158.28 E28.09987
G1 X161.197 Y159.035 E28.12468
G1 X160.767 Y159.815 E28.15282
G1 X160.224 Y160.416 E28.17842
G1 X159.765 Y160.784 E28.19701
G1 X159.25 Y161.084 E28.21584
G1 X158.647 Y161.324 E28.23634
G1 X158.059 Y161.451 E28.25535
G1 X157.284 Y161.499 E28.27989
G1 F2700 E23.27989
G0 F6000 X157.288 Y161.231
G0 X155.911 Y160.955
G0 X151.442 Y169.299
G0 X145.673 Y169.327
G1 F2700 E28.27989
G0 F6000 X145.862 Y169.138
G1 F1200 X169.14 Y169.14 E29.0154
G1 X169.14 Y145.86 E29.75099
G1 X145.861 Y145.861 E30.48653
G1 X145.862 Y169.138 E31.22202
G0 F6000 X146.309 Y168.937
G1 F1200 X146.061 Y168.688 E31.23313
G0 F6000 X146.061 Y168.123
G1 F1200 X146.875 Y168.937 E31.2695
G0 F6000 X147.44 Y168.937
G1 F1200 X146.061 Y167.557 E31.33114
G0 F6000 X146.061 Y166.991
G1 F1200 X148.006 Y168.937 E31.41808
G0 F6000 X148.572 Y168.937
G1 F1200 X146.061 Y166.426 E31.53028
G0 F6000 X146.061 Y165.86
G1 F1200 X149.138 Y168.937 E31.66778
G0 F6000 X149.703 Y168.937
G1 F1200 X146.061 Y165.294 E31.83054
G0 F6000 X146.061 Y164.729
G1 F1200 X150.269 Y168.937 E32.01858
G0 F6000 X150.835 Y168.937
G1 F1200 X146.061 Y164.163 E32.2319
G0 F6000 X146.061 Y163.597
G1 F1200 X151.4 Y168.937 E32.4705
G0 F6000 X151.967 Y168.937
G1 F1200 X146.061 Y163.031 E32.73441
G0 F6000 X146.061 Y162.466
G1 F1200 X152.532 Y168.937 E33.02357
G0 F6000 X153.098 Y168.937
G1 F1200 X146.061 Y161.9 E33.33802
G0 F6000 X146.061 Y161.334
G1 F1200 X153.664 Y168.937 E33.67776
G0 F6000 X154.229 Y168.937
G1 F1200 X146.061 Y160.769 E34.04274
G0 F6000 X146.061 Y160.203
G1 F1200 X154.795 Y168.937 E34.43302
G0 F6000 X155.361 Y168.937
G1 F1200 X146.061 Y159.637 E34.8486
G0 F6000 X146.061 Y159.072
G1 F1200 X155.926 Y168.937 E35.28941
G0 F6000 X156.492 Y168.937
G1 F1200 X146.061 Y158.506 E35.75552
G0 F6000 X146.061 Y157.94
G1 F1200 X157.058 Y168.937 E36.24693
G0 F6000 X157.624 Y168.938
G1 F1200 X146.06 Y157.374 E36.76366
G0 F6000 X146.06 Y156.808
G1 F1200 X158.19 Y168.938 E37.30569
G0 F6000 X158.756 Y168.938
G1 F1200 X146.06 Y156.243 E37.87299
G0 F6000 X146.06 Y155.677
G1 F1200 X159.321 Y168.938 E38.46556
G0 F6000 X159.887 Y168.938
