;FLAVOR:Marlin
;TIME:1298
;Filament used: 0.615706m
;Layer height: 0.16
;MINX:124.425
;MINY:133.497
;MINZ:0.2
;MAXX:176.25
;MAXY:181.503
;MAXZ:6.48
;Generated with Cura_SteamEngine main
M82 ;absolute extrusion mode
; START OF PREHEAT AND HOMEING SEQUENCE
M107 ;Turn off part cooling blowers
M140 S50 ;Start heating bed
M104 S200 ;Start heating extruder

; Home and move to center of the bed
G1 Z2.0 F3000; Move Z Axis up to prevent scratching bed
G28 ;Home
M420 S1 Z2 ; Use ABL to center on the bed
G1 Z62.0 F1000; Move Z Axis up to manual addjust steppers
M190 S50 ;Wait for bed to reach temp before proceeding
M109 S200 ;Wait for extruder to reach temp before proceeding
G28 ;Home and reset leveling
; END OF PREHEAT AND HOMEING SEQUENCE

M201 X500.00 Y500.00 Z100.00 E5000.00 ;Setup machine max acceleration
M203 X500.00 Y500.00 Z10.00 E50.00 ;Setup machine max feedrate
M204 P500.00 R1000.00 T500.00 ;Setup Print/Retract/Travel acceleration
M205 X8.00 Y8.00 Z0.40 E5.00 ;Setup Jerk
M220 S100 ;Reset Feedrate
M221 S100 ;Reset Flowrate
M420 S1 Z2 ;Enable ABL using saved Mesh and Fade Height

G92 E0 ;Reset Extruder
G1 Z2.0 F3000 ;Move Z Axis up
G1 X10.1 Y20 Z0.28 F5000.0 ;Move to start position
G1 X10.1 Y200.0 Z0.28 F1500.0 E15 ;Draw the first line
G1 X10.4 Y200.0 Z0.28 F5000.0 ;Move to side a little
G1 X10.4 Y20 Z0.28 F1500.0 E30 ;Draw the second line
G92 E0 ;Reset Extruder
G1 Z2.0 F3000 ;Move Z Axis up
G92 E0
G92 E0
G1 F2700 E-5
;LAYER_COUNT:34
;LAYER:0
M107
G0 F6000 X127.623 Y136.764 Z0.2
G0 X124.426 Y145.025
;TYPE:SKIRT
G1 F2700 E0
G1 F1200 X124.435 Y144.36 E0.02101
G1 X124.488 Y143.424 E0.05064
G1 X124.62 Y142.495 E0.08028
G1 X124.831 Y141.581 E0.10992
G1 X125.119 Y140.689 E0.13954
G1 X125.482 Y139.824 E0.16918
G1 X125.917 Y138.993 E0.19882
G1 X126.421 Y138.203 E0.22843
G1 X126.991 Y137.458 E0.25807
G1 X127.623 Y136.764 E0.28773
G1 X128.311 Y136.127 E0.31735
G1 X129.051 Y135.551 E0.34698
G1 X129.837 Y135.039 E0.37662
G1 X130.664 Y134.597 E0.40625
G1 X131.526 Y134.227 E0.43589
G1 X132.416 Y133.931 E0.46553
G1 X133.328 Y133.713 E0.49515
G1 X134.255 Y133.572 E0.52478
G1 X135.126 Y133.513 E0.55237
G1 X135.759 Y133.5 E0.57237
G1 X149.441 Y133.505 E1.00468
G1 X151.703 Y133.497 E1.07616
G1 X164.701 Y133.501 E1.48686
G1 X165.399 Y133.511 E1.50891
G1 X166.335 Y133.565 E1.53854
G1 X167.263 Y133.697 E1.56815
G1 X168.177 Y133.909 E1.5978
G1 X169.069 Y134.198 E1.62743
G1 X169.934 Y134.561 E1.65707
G1 X170.764 Y134.997 E1.68669
G1 X171.555 Y135.502 E1.71635
G1 X172.299 Y136.073 E1.74598
G1 X172.992 Y136.705 E1.77561
G1 X173.629 Y137.393 E1.80524
G1 X174.204 Y138.134 E1.83488
G1 X174.715 Y138.92 E1.8645
G1 X175.157 Y139.748 E1.89415
G1 X175.526 Y140.61 E1.92378
G1 X175.821 Y141.5 E1.95341
G1 X176.039 Y142.412 E1.98304
G1 X176.179 Y143.34 E2.01269
G1 X176.237 Y144.201 E2.03996
G1 X176.25 Y144.83 E2.05984
G1 X176.249 Y153.414 E2.33107
G1 X176.226 Y155.026 E2.38201
G1 X176.191 Y156.26 E2.42101
G1 X176.191 Y158.771 E2.50035
G1 X176.247 Y161.061 E2.57273
G1 X176.249 Y169.9 E2.85202
G1 X176.24 Y170.627 E2.87499
G1 X176.189 Y171.564 E2.90464
G1 X176.057 Y172.492 E2.93426
G1 X175.848 Y173.406 E2.96388
G1 X175.561 Y174.299 E2.99352
G1 X175.199 Y175.165 E3.02318
G1 X174.765 Y175.996 E3.0528
G1 X174.261 Y176.787 E3.08244
G1 X173.692 Y177.532 E3.11206
G1 X173.061 Y178.227 E3.14172
G1 X172.374 Y178.865 E3.17134
G1 X171.635 Y179.442 E3.20097
G1 X170.849 Y179.954 E3.23061
G1 X170.023 Y180.397 E3.26022
G1 X169.161 Y180.769 E3.28989
G1 X168.272 Y181.065 E3.31949
G1 X167.36 Y181.285 E3.34914
G1 X166.433 Y181.426 E3.37876
G1 X165.549 Y181.487 E3.40676
G1 X164.923 Y181.5 E3.42655
G1 X152.478 Y181.503 E3.81977
G1 X148.43 Y181.495 E3.94768
G1 X135.974 Y181.499 E4.34125
G1 X135.276 Y181.489 E4.36331
G1 X134.34 Y181.435 E4.39293
G1 X133.412 Y181.303 E4.42255
G1 X132.498 Y181.091 E4.4522
G1 X131.606 Y180.802 E4.48182
G1 X130.741 Y180.439 E4.51146
G1 X129.911 Y180.003 E4.54109
G1 X129.12 Y179.498 E4.57074
G1 X128.376 Y178.927 E4.60037
G1 X127.683 Y178.295 E4.63001
G1 X127.046 Y177.607 E4.65964
G1 X126.471 Y176.866 E4.68927
G1 X125.96 Y176.08 E4.71889
G1 X125.518 Y175.252 E4.74855
G1 X125.149 Y174.39 E4.77818
G1 X124.854 Y173.5 E4.8078
G1 X124.636 Y172.588 E4.83743
G1 X124.496 Y171.66 E4.86709
G1 X124.438 Y170.788 E4.8947
G1 X124.425 Y170.158 E4.91461
G1 X124.426 Y161.552 E5.18654
G1 X124.449 Y159.974 E5.2364
G1 X124.484 Y158.74 E5.27541
G1 X124.484 Y156.229 E5.35475
G1 X124.428 Y153.939 E5.42713
G1 X124.426 Y145.025 E5.70878
G0 F6000 X124.826 Y145.031
G1 F1200 X124.835 Y144.366 E5.7298
G1 X124.887 Y143.446 E5.75891
G1 X125.019 Y142.535 E5.788
G1 X125.23 Y141.639 E5.81708
G1 X125.517 Y140.764 E5.84618
G1 X125.88 Y139.918 E5.87527
G1 X126.314 Y139.106 E5.90436
G1 X126.817 Y138.335 E5.93345
G1 X127.386 Y137.611 E5.96254
G1 X128.014 Y136.939 E5.99161
G1 X128.699 Y136.323 E6.02071
G1 X129.435 Y135.77 E6.0498
G1 X130.216 Y135.282 E6.0789
G1 X131.036 Y134.864 E6.10798
G1 X131.89 Y134.519 E6.13709
G1 X132.77 Y134.249 E6.16617
G1 X133.67 Y134.057 E6.19525
G1 X134.584 Y133.943 E6.22435
G1 X135.137 Y133.913 E6.24185
G1 X135.759 Y133.9 E6.26151
G1 X149.443 Y133.905 E6.69388
G1 X151.702 Y133.897 E6.76526
G1 X164.695 Y133.901 E7.1758
G1 X165.393 Y133.911 E7.19786
G1 X166.312 Y133.964 E7.22695
G1 X167.223 Y134.097 E7.25604
G1 X168.119 Y134.308 E7.28512
G1 X168.993 Y134.596 E7.3142
G1 X169.84 Y134.959 E7.34332
G1 X170.651 Y135.394 E7.37239
G1 X171.421 Y135.898 E7.40147
G1 X172.145 Y136.467 E7.43057
G1 X172.817 Y137.097 E7.45967
G1 X173.432 Y137.782 E7.48876
G1 X173.985 Y138.518 E7.51785
G1 X174.472 Y139.299 E7.54693
G1 X174.889 Y140.12 E7.57603
G1 X175.234 Y140.974 E7.60513
G1 X175.503 Y141.854 E7.6342
G1 X175.695 Y142.755 E7.66331
G1 X175.808 Y143.668 E7.69238
G1 X175.837 Y144.212 E7.70959
G1 X175.85 Y144.83 E7.72913
G1 X175.849 Y153.408 E8.00017
G1 X175.826 Y155.015 E8.05095
G1 X175.791 Y156.249 E8.08995
G1 X175.791 Y158.781 E8.16996
G1 X175.85 Y161.33 E8.25052
G1 X175.849 Y169.895 E8.52115
G1 X175.84 Y170.622 E8.54412
G1 X175.789 Y171.541 E8.57321
G1 X175.658 Y172.453 E8.60232
G1 X175.448 Y173.349 E8.6314
G1 X175.162 Y174.224 E8.66048
G1 X174.801 Y175.071 E8.68958
G1 X174.367 Y175.883 E8.71867
G1 X173.865 Y176.655 E8.74776
G1 X173.297 Y177.38 E8.77686
G1 X172.669 Y178.053 E8.80595
G1 X171.985 Y178.669 E8.83503
G1 X171.25 Y179.223 E8.86412
G1 X170.47 Y179.712 E8.89321
G1 X169.65 Y180.131 E8.9223
G1 X168.797 Y180.477 E8.95139
G1 X167.917 Y180.748 E8.98048
G1 X167.017 Y180.941 E9.00956
G1 X166.103 Y181.056 E9.03867
G1 X165.538 Y181.087 E9.05655
G1 X164.923 Y181.1 E9.07599
G1 X152.479 Y181.103 E9.46918
G1 X148.431 Y181.095 E9.59709
G1 X135.98 Y181.099 E9.9905
G1 X135.282 Y181.089 E10.01256
G1 X134.363 Y181.036 E10.04165
G1 X133.452 Y180.903 E10.07074
G1 X132.556 Y180.692 E10.09982
G1 X131.682 Y180.404 E10.1289
G1 X130.835 Y180.041 E10.15802
G1 X130.024 Y179.606 E10.1871
G1 X129.254 Y179.102 E10.21617
G1 X128.53 Y178.533 E10.24527
G1 X127.858 Y177.903 E10.27437
G1 X127.243 Y177.218 E10.30346
G1 X126.69 Y176.482 E10.33255
G1 X126.203 Y175.701 E10.36163
G1 X125.786 Y174.88 E10.39073
G1 X125.441 Y174.026 E10.41983
G1 X125.172 Y173.146 E10.44891
G1 X124.98 Y172.245 E10.47801
G1 X124.867 Y171.332 E10.50708
G1 X124.838 Y170.777 E10.52464
G1 X124.825 Y170.158 E10.54421
G1 X124.826 Y161.558 E10.81594
G1 X124.849 Y159.985 E10.86565
G1 X124.884 Y158.751 E10.90465
G1 X124.884 Y156.219 E10.98466
G1 X124.825 Y153.67 E11.06522
G1 X124.826 Y145.031 E11.33819
G0 F6000 X125.226 Y145.036
G1 F1200 X125.235 Y144.371 E11.3592
G1 X125.287 Y143.469 E11.38775
G1 X125.419 Y142.576 E11.41627
G1 X125.629 Y141.698 E11.4448
G1 X125.916 Y140.841 E11.47336
G1 X126.278 Y140.014 E11.50188
G1 X126.711 Y139.222 E11.5304
G1 X127.213 Y138.471 E11.55894
G1 X127.78 Y137.767 E11.58751
G1 X128.406 Y137.117 E11.61602
G1 X129.087 Y136.524 E11.64455
G1 X129.819 Y135.994 E11.67311
G1 X130.594 Y135.531 E11.70163
G1 X131.407 Y135.138 E11.73016
G1 X132.252 Y134.818 E11.75871
G1 X133.121 Y134.575 E11.78723
G1 X134.009 Y134.409 E11.81577
G1 X135.148 Y134.313 E11.85189
G1 X135.759 Y134.3 E11.8712
G1 X149.444 Y134.305 E12.3036
G1 X151.702 Y134.297 E12.37495
G1 X164.689 Y134.301 E12.7853
G1 X165.387 Y134.311 E12.80736
G1 X166.289 Y134.364 E12.83591
G1 X167.182 Y134.496 E12.86443
G1 X168.06 Y134.707 E12.89296
G1 X168.916 Y134.995 E12.9215
G1 X169.743 Y135.357 E12.95003
G1 X170.535 Y135.792 E12.97858
G1 X171.286 Y136.294 E13.00712
G1 X171.989 Y136.861 E13.03566
G1 X172.639 Y137.488 E13.06419
G1 X173.231 Y138.17 E13.09273
G1 X173.761 Y138.901 E13.12126
G1 X174.223 Y139.677 E13.14979
G1 X174.616 Y140.49 E13.17833
G1 X174.934 Y141.335 E13.20685
G1 X175.177 Y142.205 E13.23539
G1 X175.342 Y143.093 E13.26393
G1 X175.437 Y144.223 E13.29976
G1 X175.45 Y144.83 E13.31895
G1 X175.449 Y153.402 E13.5898
G1 X175.426 Y155.003 E13.64039
G1 X175.391 Y156.237 E13.6794
G1 X175.391 Y158.791 E13.7601
G1 X175.45 Y161.33 E13.84034
G1 X175.449 Y169.89 E14.11081
G1 X175.44 Y170.617 E14.13379
G1 X175.389 Y171.519 E14.16233
G1 X175.258 Y172.413 E14.19088
G1 X175.049 Y173.291 E14.2194
G1 X174.763 Y174.148 E14.24795
G1 X174.402 Y174.976 E14.27649
G1 X173.97 Y175.768 E14.30499
G1 X173.469 Y176.52 E14.33355
G1 X172.903 Y177.224 E14.36209
G1 X172.278 Y177.875 E14.3906
G1 X171.597 Y178.469 E14.41916
G1 X170.866 Y179 E14.4477
G1 X170.092 Y179.464 E14.47622
G1 X169.279 Y179.858 E14.50476
G1 X168.435 Y180.178 E14.53328
G1 X167.565 Y180.423 E14.56184
G1 X166.678 Y180.589 E14.59036
G1 X165.527 Y180.687 E14.62686
G1 X164.922 Y180.7 E14.64598
G1 X152.48 Y180.703 E15.03911
G1 X148.432 Y180.695 E15.16701
G1 X136.136 Y180.7 E15.55553
G1 X135.288 Y180.689 E15.58233
G1 X134.386 Y180.636 E15.61088
G1 X133.493 Y180.504 E15.6394
G1 X132.615 Y180.293 E15.66793
G1 X131.759 Y180.005 E15.69647
G1 X130.932 Y179.643 E15.72499
G1 X130.14 Y179.208 E15.75355
G1 X129.389 Y178.706 E15.78209
G1 X128.686 Y178.139 E15.81063
G1 X128.036 Y177.512 E15.83916
G1 X127.444 Y176.83 E15.8677
G1 X126.914 Y176.099 E15.89623
G1 X126.452 Y175.323 E15.92476
G1 X126.059 Y174.51 E15.95329
G1 X125.741 Y173.665 E15.98182
G1 X125.498 Y172.795 E16.01036
G1 X125.333 Y171.907 E16.0389
G1 X125.238 Y170.766 E16.07508
G1 X125.225 Y170.158 E16.0943
G1 X125.226 Y161.563 E16.36587
G1 X125.249 Y159.997 E16.41536
G1 X125.284 Y158.763 E16.45437
G1 X125.284 Y156.209 E16.53506
G1 X125.225 Y153.67 E16.61531
G1 X125.226 Y145.036 E16.88812
G1 F2700 E11.88812
G0 F6000 X134.772 Y143.847
G0 X148.828 Y143.847
G0 X150.35 Y145.1
G1 F2700 E16.88812
G1 F1200 X151.1 Y145.1 E16.91182
G1 X151.1 Y154.65 E17.21357
G1 X150.35 Y154.65 E17.23727
G1 X150.35 Y145.1 E17.53902
G0 F6000 X149.95 Y144.7
G1 F1200 X151.5 Y144.7 E17.588
G1 X151.5 Y155.05 E17.91503
G1 X149.95 Y155.05 E17.964
G1 X149.95 Y144.7 E18.29103
G1 F2700 E13.29103
G0 F6000 X149.95 Y159.95
G1 F2700 E18.29103
G1 F1200 X151.5 Y159.95 E18.34001
G1 X151.5 Y170.3 E18.66704
G1 X149.95 Y170.3 E18.71601
G1 X149.95 Y159.95 E19.04305
G0 F6000 X150.35 Y160.35
G1 F1200 X151.1 Y160.35 E19.06674
G1 X151.1 Y169.9 E19.3685
G1 X150.35 Y169.9 E19.39219
G1 X150.35 Y160.35 E19.69395
G1 F2700 E14.69395
;MESH:LID L.stl
G0 F6000 X147.755 Y160.35
G0 X147.175 Y169.5
;TYPE:WALL-INNER
G1 F2700 E19.69395
G1 F1200 X147.175 Y145.5 E20.45228
G1 X140.795 Y145.501 E20.65387
G1 X141.271 Y145.732 E20.67058
G1 X141.648 Y145.984 E20.68491
G1 X142.017 Y146.313 E20.70053
G1 X142.309 Y146.661 E20.71489
G1 X142.621 Y147.157 E20.7334
G1 X142.827 Y147.703 E20.75184
G1 X142.931 Y148.188 E20.76751
G1 X142.965 Y148.651 E20.78218
G1 X142.924 Y149.164 E20.79844
G1 X142.835 Y149.588 E20.81213
G1 X142.633 Y150.144 E20.83082
G1 X142.257 Y150.75 E20.85336
G1 X141.863 Y151.152 E20.87114
G1 X141.498 Y151.443 E20.88589
G1 X141.069 Y151.697 E20.90165
G1 X140.639 Y151.87 E20.91629
G1 X140.19 Y151.983 E20.93092
G1 X139.629 Y152.047 E20.94876
G1 X139.001 Y151.989 E20.96869
G1 X138.537 Y151.872 E20.98381
G1 X138.103 Y151.697 E20.9986
G1 X137.718 Y151.472 E21.01269
G1 X137.331 Y151.177 E21.02806
G1 X137.005 Y150.84 E21.04288
G1 X136.72 Y150.448 E21.05819
G1 X136.534 Y150.103 E21.07057
G1 X136.426 Y149.834 E21.07973
G1 X136.425 Y153 E21.17977
G1 X140.572 Y153 E21.3108
G1 X140.912 Y153.125 E21.32225
G1 X141.161 Y153.321 E21.33226
G1 X141.378 Y153.654 E21.34482
G1 X141.425 Y154 E21.35585
G1 X141.425 Y161.121 E21.58086
G1 X141.365 Y161.343 E21.58812
G1 X141.235 Y161.588 E21.59689
G1 X141.031 Y161.797 E21.60612
G1 X140.767 Y161.941 E21.61562
G1 X140.517 Y161.997 E21.62371
G1 X136.426 Y162.001 E21.75298
G1 X136.425 Y165.171 E21.85314
G1 X136.524 Y164.923 E21.86158
G1 X136.721 Y164.55 E21.8749
G1 X137.002 Y164.165 E21.88997
G1 X137.317 Y163.837 E21.90433
G1 X137.706 Y163.536 E21.91988
G1 X138.103 Y163.302 E21.93444
G1 X138.525 Y163.132 E21.94881
G1 X138.983 Y163.017 E21.96373
G1 X139.572 Y162.949 E21.98247
G1 X140.273 Y163.023 E22.00474
G1 X140.847 Y163.205 E22.02377
G1 X141.26 Y163.404 E22.03825
G1 X141.668 Y163.676 E22.05375
G1 X142.118 Y164.09 E22.07307
G1 X142.453 Y164.553 E22.09112
G1 X142.674 Y164.966 E22.10592
G1 X142.835 Y165.413 E22.12094
G1 X142.931 Y165.867 E22.1356
G1 X142.965 Y166.328 E22.1502
G1 X142.924 Y166.841 E22.16647
G1 X142.837 Y167.259 E22.17996
G1 X142.635 Y167.818 E22.19874
G1 X142.321 Y168.321 E22.21747
G1 X141.956 Y168.762 E22.23556
G1 X141.385 Y169.211 E22.25851
G1 X140.795 Y169.499 E22.27926
G1 X147.175 Y169.5 E22.48085
G0 F6000 X140.939 Y169.542
G0 X138.378 Y169.499
G1 F1200 X137.897 Y169.265 E22.49775
G1 X137.521 Y169.014 E22.51203
G1 X137.19 Y168.717 E22.52608
G1 X136.79 Y168.251 E22.54549
G1 X136.545 Y167.801 E22.56168
G1 X136.426 Y167.513 E22.57152
G1 X136.426 Y169.499 E22.63428
G1 X138.378 Y169.499 E22.69595
G0 F6000 X140.109 Y169.579
G0 X140.049 Y169.341
G1 F956.2 X139.438 Y169.358 E22.72019
G1 F941.2 X139.01 Y169.321 E22.7375
G1 F973.6 X138.761 Y169.22 E22.74796
G1 F1113.7 X138.512 Y169.119 E22.75711
G1 F1200 X138.136 Y168.937 E22.77031
G1 X137.804 Y168.721 E22.78283
G1 X137.464 Y168.426 E22.79705
G1 X137.118 Y168.018 E22.81395
G1 X136.877 Y167.575 E22.82989
G1 F1145.6 X136.782 Y167.32 E22.83889
G1 F1050.3 X136.687 Y167.065 E22.84872
G1 F969.7 X136.591 Y166.81 E22.85937
G1 F952.4 X136.565 Y166.404 E22.87557
G1 F961.9 X136.577 Y166.138 E22.88606
G1 F943 X136.59 Y165.872 E22.89677
G1 F989.7 X136.718 Y165.527 E22.91087
G1 F1121.5 X136.847 Y165.181 E22.92335
G1 F1200 X137.06 Y164.764 E22.93815
G1 X137.336 Y164.395 E22.95271
G1 X137.611 Y164.116 E22.96509
G1 X137.921 Y163.873 E22.97753
G1 X138.322 Y163.645 E22.99211
G1 X138.685 Y163.505 E23.0044
G1 X139.052 Y163.411 E23.01637
G1 X139.576 Y163.352 E23.03303
G1 X140.214 Y163.419 E23.0533
G1 X140.662 Y163.566 E23.0682
G1 X141.02 Y163.732 E23.08067
G1 X141.419 Y163.993 E23.09574
G1 X141.809 Y164.344 E23.11231
G1 X142.129 Y164.796 E23.12981
G1 X142.322 Y165.168 E23.14305
G1 X142.456 Y165.558 E23.15608
G1 X142.537 Y165.965 E23.1692
G1 X142.56 Y166.362 E23.18176
G1 X142.53 Y166.772 E23.19475
G1 X142.458 Y167.115 E23.20583
G1 X142.274 Y167.641 E23.22343
G1 X142.017 Y168.053 E23.23878
G1 X141.677 Y168.474 E23.25587
G1 X141.173 Y168.869 E23.27611
G1 X140.668 Y169.115 E23.29386
G1 F1124.1 X140.359 Y169.228 E23.30495
G1 F997.9 X140.049 Y169.341 E23.31749
G0 F6000 X139.971 Y168.894
;TYPE:WALL-OUTER
G1 F1200 X139.483 Y168.912 E23.33292
G1 X139.123 Y168.873 E23.34436
G1 X138.686 Y168.759 E23.35863
G1 X138.31 Y168.577 E23.37183
G1 X138.004 Y168.372 E23.38347
G1 X137.739 Y168.135 E23.3947
G1 X137.465 Y167.809 E23.40816
G1 X137.236 Y167.393 E23.42316
G1 X137.12 Y167.086 E23.43353
G1 X137.036 Y166.706 E23.44583
G1 X137.011 Y166.371 E23.45644
G1 X137.034 Y165.995 E23.46835
G1 X137.106 Y165.644 E23.47967
G1 X137.233 Y165.295 E23.4914
G1 X137.394 Y164.988 E23.50236
G1 X137.624 Y164.672 E23.51471
G1 X137.84 Y164.447 E23.52456
G1 X138.142 Y164.207 E23.53675
G1 X138.444 Y164.03 E23.54781
G1 X138.786 Y163.892 E23.55946
G1 X139.121 Y163.805 E23.5704
G1 X139.601 Y163.757 E23.58564
G1 X140.147 Y163.818 E23.603
G1 X140.537 Y163.946 E23.61597
G1 X140.847 Y164.093 E23.62681
G1 X141.171 Y164.307 E23.63908
G1 X141.497 Y164.601 E23.65295
G1 X141.777 Y164.986 E23.66799
