;FLAVOR:Marlin
;TIME:1278
;Filament used: 0.61981m
;Layer height: 0.16
;MINX:124.425
;MINY:133.497
;MINZ:0.2
;MAXX:176.25
;MAXY:181.503
;MAXZ:6.48
;Generated with Cura_SteamEngine main
M82 ;absolute extrusion mode
; START OF PREHEAT AND HOMEING SEQUENCE
M107 ;Turn off part cooling blowers
M140 S50 ;Start heating bed
M104 S200 ;Start heating extruder

; Home and move to center of the bed
G1 Z2.0 F3000; Move Z Axis up to prevent scratching bed
G28 ;Home
M420 S1 Z2 ; Use ABL to center on the bed
G1 Z62.0 F1000; Move Z Axis up to manual addjust steppers
M190 S50 ;Wait for bed to reach temp before proceeding
M109 S200 ;Wait for extruder to reach temp before proceeding
G28 ;Home and reset leveling
; END OF PREHEAT AND HOMEING SEQUENCE

M201 X500.00 Y500.00 Z100.00 E5000.00 ;Setup machine max acceleration
M203 X500.00 Y500.00 Z10.00 E50.00 ;Setup machine max feedrate
M204 P500.00 R1000.00 T500.00 ;Setup Print/Retract/Travel acceleration
M205 X8.00 Y8.00 Z0.40 E5.00 ;Setup Jerk
M220 S100 ;Reset Feedrate
M221 S100 ;Reset Flowrate
M420 S1 Z2 ;Enable ABL using saved Mesh and Fade Height

G92 E0 ;Reset Extruder
G1 Z2.0 F3000 ;Move Z Axis up
G1 X10.1 Y20 Z0.28 F5000.0 ;Move to start position
G1 X10.1 Y200.0 Z0.28 F1500.0 E15 ;Draw the first line
G1 X10.4 Y200.0 Z0.28 F5000.0 ;Move to side a little
G1 X10.4 Y20 Z0.28 F1500.0 E30 ;Draw the second line
G92 E0 ;Reset Extruder
G1 Z2.0 F3000 ;Move Z Axis up
G92 E0
G92 E0
G1 F2700 E-5
;LAYER_COUNT:34
;LAYER:0
M107
G0 F6000 X127.623 Y136.764 Z0.2
G0 X124.426 Y145.025
;TYPE:SKIRT
G1 F2700 E0
G1 F1200 X124.435 Y144.36 E0.02101
G1 X124.488 Y143.424 E0.05064
G1 X124.62 Y142.495 E0.08028
G1 X124.831 Y141.581 E0.10992
G1 X125.119 Y140.689 E0.13954
G1 X125.482 Y139.824 E0.16918
G1 X125.917 Y138.993 E0.19882
G1 X126.421 Y138.203 E0.22843
G1 X126.991 Y137.458 E0.25807
G1 X127.623 Y136.764 E0.28773
G1 X128.311 Y136.127 E0.31735
G1 X129.051 Y135.551 E0.34698
G1 X129.837 Y135.039 E0.37662
G1 X130.664 Y134.597 E0.40625
G1 X131.526 Y134.227 E0.43589
G1 X132.416 Y133.931 E0.46553
G1 X133.328 Y133.713 E0.49515
G1 X134.255 Y133.572 E0.52478
G1 X135.126 Y133.513 E0.55237
G1 X135.759 Y133.5 E0.57237
G1 X149.441 Y133.505 E1.00468
G1 X151.703 Y133.497 E1.07616
G1 X164.701 Y133.501 E1.48686
G1 X165.399 Y133.511 E1.50891
G1 X166.335 Y133.565 E1.53854
G1 X167.263 Y133.697 E1.56815
G1 X168.177 Y133.909 E1.5978
G1 X169.069 Y134.198 E1.62743
G1 X169.934 Y134.561 E1.65707
G1 X170.764 Y134.997 E1.68669
G1 X171.555 Y135.502 E1.71635
G1 X172.299 Y136.073 E1.74598
G1 X172.992 Y136.705 E1.77561
G1 X173.629 Y137.393 E1.80524
G1 X174.204 Y138.134 E1.83488
G1 X174.715 Y138.92 E1.8645
G1 X175.157 Y139.748 E1.89415
G1 X175.526 Y140.61 E1.92378
G1 X175.821 Y141.5 E1.95341
G1 X176.039 Y142.412 E1.98304
G1 X176.179 Y143.34 E2.01269
G1 X176.237 Y144.201 E2.03996
G1 X176.25 Y144.83 E2.05984
G1 X176.249 Y153.414 E2.33107
G1 X176.226 Y155.026 E2.38201
G1 X176.191 Y156.26 E2.42101
G1 X176.191 Y158.771 E2.50035
G1 X176.247 Y161.061 E2.57273
G1 X176.249 Y169.9 E2.85202
G1 X176.24 Y170.627 E2.87499
G1 X176.189 Y171.564 E2.90464
G1 X176.057 Y172.492 E2.93426
G1 X175.848 Y173.406 E2.96388
G1 X175.561 Y174.299 E2.99352
G1 X175.199 Y175.165 E3.02318
G1 X174.765 Y175.996 E3.0528
G1 X174.261 Y176.787 E3.08244
G1 X173.692 Y177.532 E3.11206
G1 X173.061 Y178.227 E3.14172
G1 X172.374 Y178.865 E3.17134
G1 X171.635 Y179.442 E3.20097
G1 X170.849 Y179.954 E3.23061
G1 X170.023 Y180.397 E3.26022
G1 X169.161 Y180.769 E3.28989
G1 X168.272 Y181.065 E3.31949
G1 X167.36 Y181.285 E3.34914
G1 X166.433 Y181.426 E3.37876
G1 X165.549 Y181.487 E3.40676
G1 X164.923 Y181.5 E3.42655
G1 X152.478 Y181.503 E3.81977
G1 X148.43 Y181.495 E3.94768
G1 X135.974 Y181.499 E4.34125
G1 X135.276 Y181.489 E4.36331
G1 X134.34 Y181.435 E4.39293
G1 X133.412 Y181.303 E4.42255
G1 X132.498 Y181.091 E4.4522
G1 X131.606 Y180.802 E4.48182
G1 X130.741 Y180.439 E4.51146
G1 X129.911 Y180.003 E4.54109
G1 X129.12 Y179.498 E4.57074
G1 X128.376 Y178.927 E4.60037
G1 X127.683 Y178.295 E4.63001
G1 X127.046 Y177.607 E4.65964
G1 X126.471 Y176.866 E4.68927
G1 X125.96 Y176.08 E4.71889
G1 X125.518 Y175.252 E4.74855
G1 X125.149 Y174.39 E4.77818
G1 X124.854 Y173.5 E4.8078
G1 X124.636 Y172.588 E4.83743
G1 X124.496 Y171.66 E4.86709
G1 X124.438 Y170.788 E4.8947
G1 X124.425 Y170.158 E4.91461
G1 X124.426 Y161.552 E5.18654
G1 X124.449 Y159.974 E5.2364
G1 X124.484 Y158.74 E5.27541
G1 X124.484 Y156.229 E5.35475
G1 X124.428 Y153.939 E5.42713
G1 X124.426 Y145.025 E5.70878
G0 F6000 X124.826 Y145.031
G1 F1200 X124.835 Y144.366 E5.7298
G1 X124.887 Y143.446 E5.75891
G1 X125.019 Y142.535 E5.788
G1 X125.23 Y141.639 E5.81708
G1 X125.517 Y140.764 E5.84618
G1 X125.88 Y139.918 E5.87527
G1 X126.314 Y139.106 E5.90436
G1 X126.817 Y138.335 E5.93345
G1 X127.386 Y137.611 E5.96254
G1 X128.014 Y136.939 E5.99161
G1 X128.699 Y136.323 E6.02071
G1 X129.435 Y135.77 E6.0498
G1 X130.216 Y135.282 E6.0789
G1 X131.036 Y134.864 E6.10798
G1 X131.89 Y134.519 E6.13709
G1 X132.77 Y134.249 E6.16617
G1 X133.67 Y134.057 E6.19525
G1 X134.584 Y133.943 E6.22435
G1 X135.137 Y133.913 E6.24185
G1 X135.759 Y133.9 E6.26151
G1 X149.443 Y133.905 E6.69388
G1 X151.702 Y133.897 E6.76526
G1 X164.695 Y133.901 E7.1758
G1 X165.393 Y133.911 E7.19786
G1 X166.312 Y133.964 E7.22695
G1 X167.223 Y134.097 E7.25604
G1 X168.119 Y134.308 E7.28512
G1 X168.993 Y134.596 E7.3142
G1 X169.84 Y134.959 E7.34332
G1 X170.651 Y135.394 E7.37239
G1 X171.421 Y135.898 E7.40147
G1 X172.145 Y136.467 E7.43057
G1 X172.817 Y137.097 E7.45967
G1 X173.432 Y137.782 E7.48876
G1 X173.985 Y138.518 E7.51785
G1 X174.472 Y139.299 E7.54693
G1 X174.889 Y140.12 E7.57603
G1 X175.234 Y140.974 E7.60513
G1 X175.503 Y141.854 E7.6342
G1 X175.695 Y142.755 E7.66331
G1 X175.808 Y143.668 E7.69238
G1 X175.837 Y144.212 E7.70959
G1 X175.85 Y144.83 E7.72913
G1 X175.849 Y153.408 E8.00017
G1 X175.826 Y155.015 E8.05095
G1 X175.791 Y156.249 E8.08995
G1 X175.791 Y158.781 E8.16996
G1 X175.85 Y161.33 E8.25052
G1 X175.849 Y169.895 E8.52115
G1 X175.84 Y170.622 E8.54412
G1 X175.789 Y171.541 E8.57321
G1 X175.658 Y172.453 E8.60232
G1 X175.448 Y173.349 E8.6314
G1 X175.162 Y174.224 E8.66048
G1 X174.801 Y175.071 E8.68958
G1 X174.367 Y175.883 E8.71867
G1 X173.865 Y176.655 E8.74776
G1 X173.297 Y177.38 E8.77686
G1 X172.669 Y178.053 E8.80595
G1 X171.985 Y178.669 E8.83503
G1 X171.25 Y179.223 E8.86412
G1 X170.47 Y179.712 E8.89321
G1 X169.65 Y180.131 E8.9223
G1 X168.797 Y180.477 E8.95139
G1 X167.917 Y180.748 E8.98048
G1 X167.017 Y180.941 E9.00956
G1 X166.103 Y181.056 E9.03867
G1 X165.538 Y181.087 E9.05655
G1 X164.923 Y181.1 E9.07599
G1 X152.479 Y181.103 E9.46918
G1 X148.431 Y181.095 E9.59709
G1 X135.98 Y181.099 E9.9905
G1 X135.282 Y181.089 E10.01256
G1 X134.363 Y181.036 E10.04165
G1 X133.452 Y180.903 E10.07074
G1 X132.556 Y180.692 E10.09982
G1 X131.682 Y180.404 E10.1289
G1 X130.835 Y180.041 E10.15802
G1 X130.024 Y179.606 E10.1871
G1 X129.254 Y179.102 E10.21617
G1 X128.53 Y178.533 E10.24527
G1 X127.858 Y177.903 E10.27437
G1 X127.243 Y177.218 E10.30346
G1 X126.69 Y176.482 E10.33255
G1 X126.203 Y175.701 E10.36163
G1 X125.786 Y174.88 E10.39073
G1 X125.441 Y174.026 E10.41983
G1 X125.172 Y173.146 E10.44891
G1 X124.98 Y172.245 E10.47801
G1 X124.867 Y171.332 E10.50708
G1 X124.838 Y170.777 E10.52464
G1 X124.825 Y170.158 E10.54421
G1 X124.826 Y161.558 E10.81594
G1 X124.849 Y159.985 E10.86565
G1 X124.884 Y158.751 E10.90465
G1 X124.884 Y156.219 E10.98466
G1 X124.825 Y153.67 E11.06522
G1 X124.826 Y145.031 E11.33819
G0 F6000 X125.226 Y145.036
G1 F1200 X125.235 Y144.371 E11.3592
G1 X125.287 Y143.469 E11.38775
G1 X125.419 Y142.576 E11.41627
G1 X125.629 Y141.698 E11.4448
G1 X125.916 Y140.841 E11.47336
G1 X126.278 Y140.014 E11.50188
G1 X126.711 Y139.222 E11.5304
G1 X127.213 Y138.471 E11.55894
G1 X127.78 Y137.767 E11.58751
G1 X128.406 Y137.117 E11.61602
G1 X129.087 Y136.524 E11.64455
G1 X129.819 Y135.994 E11.67311
G1 X130.594 Y135.531 E11.70163
G1 X131.407 Y135.138 E11.73016
G1 X132.252 Y134.818 E11.75871
G1 X133.121 Y134.575 E11.78723
G1 X134.009 Y134.409 E11.81577
G1 X135.148 Y134.313 E11.85189
G1 X135.759 Y134.3 E11.8712
G1 X149.444 Y134.305 E12.3036
G1 X151.702 Y134.297 E12.37495
G1 X164.689 Y134.301 E12.7853
G1 X165.387 Y134.311 E12.80736
G1 X166.289 Y134.364 E12.83591
G1 X167.182 Y134.496 E12.86443
G1 X168.06 Y134.707 E12.89296
G1 X168.916 Y134.995 E12.9215
G1 X169.743 Y135.357 E12.95003
G1 X170.535 Y135.792 E12.97858
G1 X171.286 Y136.294 E13.00712
G1 X171.989 Y136.861 E13.03566
G1 X172.639 Y137.488 E13.06419
G1 X173.231 Y138.17 E13.09273
G1 X173.761 Y138.901 E13.12126
G1 X174.223 Y139.677 E13.14979
G1 X174.616 Y140.49 E13.17833
G1 X174.934 Y141.335 E13.20685
G1 X175.177 Y142.205 E13.23539
G1 X175.342 Y143.093 E13.26393
G1 X175.437 Y144.223 E13.29976
G1 X175.45 Y144.83 E13.31895
G1 X175.449 Y153.402 E13.5898
G1 X175.426 Y155.003 E13.64039
G1 X175.391 Y156.237 E13.6794
G1 X175.391 Y158.791 E13.7601
G1 X175.45 Y161.33 E13.84034
G1 X175.449 Y169.89 E14.11081
G1 X175.44 Y170.617 E14.13379
G1 X175.389 Y171.519 E14.16233
G1 X175.258 Y172.413 E14.19088
G1 X175.049 Y173.291 E14.2194
G1 X174.763 Y174.148 E14.24795
G1 X174.402 Y174.976 E14.27649
G1 X173.97 Y175.768 E14.30499
G1 X173.469 Y176.52 E14.33355
G1 X172.903 Y177.224 E14.36209
G1 X172.278 Y177.875 E14.3906
G1 X171.597 Y178.469 E14.41916
G1 X170.866 Y179 E14.4477
G1 X170.092 Y179.464 E14.47622
G1 X169.279 Y179.858 E14.50476
G1 X168.435 Y180.178 E14.53328
G1 X167.565 Y180.423 E14.56184
G1 X166.678 Y180.589 E14.59036
G1 X165.527 Y180.687 E14.62686
G1 X164.922 Y180.7 E14.64598
G1 X152.48 Y180.703 E15.03911
G1 X148.432 Y180.695 E15.16701
G1 X136.136 Y180.7 E15.55553
G1 X135.288 Y180.689 E15.58233
G1 X134.386 Y180.636 E15.61088
G1 X133.493 Y180.504 E15.6394
G1 X132.615 Y180.293 E15.66793
G1 X131.759 Y180.005 E15.69647
G1 X130.932 Y179.643 E15.72499
G1 X130.14 Y179.208 E15.75355
G1 X129.389 Y178.706 E15.78209
G1 X128.686 Y178.139 E15.81063
G1 X128.036 Y177.512 E15.83916
G1 X127.444 Y176.83 E15.8677
G1 X126.914 Y176.099 E15.89623
G1 X126.452 Y175.323 E15.92476
G1 X126.059 Y174.51 E15.95329
G1 X125.741 Y173.665 E15.98182
G1 X125.498 Y172.795 E16.01036
G1 X125.333 Y171.907 E16.0389
G1 X125.238 Y170.766 E16.07508
G1 X125.225 Y170.158 E16.0943
G1 X125.226 Y161.563 E16.36587
G1 X125.249 Y159.997 E16.41536
G1 X125.284 Y158.763 E16.45437
G1 X125.284 Y156.209 E16.53506
G1 X125.225 Y153.67 E16.61531
G1 X125.226 Y145.036 E16.88812
G1 F2700 E11.88812
G0 F6000 X134.772 Y143.847
G0 X148.828 Y143.847
G0 X150.35 Y145.1
G1 F2700 E16.88812
G1 F1200 X151.1 Y145.1 E16.91182
G1 X151.1 Y154.65 E17.21357
G1 X150.35 Y154.65 E17.23727
G1 X150.35 Y145.1 E17.53902
G0 F6000 X149.95 Y144.7
G1 F1200 X151.5 Y144.7 E17.588
G1 X151.5 Y155.05 E17.91503
G1 X149.95 Y155.05 E17.964
G1 X149.95 Y144.7 E18.29103
G1 F2700 E13.29103
G0 F6000 X149.95 Y159.95
G1 F2700 E18.29103
G1 F1200 X151.5 Y159.95 E18.34001
G1 X151.5 Y170.3 E18.66704
G1 X149.95 Y170.3 E18.71601
G1 X149.95 Y159.95 E19.04305
G0 F6000 X150.35 Y160.35
G1 F1200 X151.1 Y160.35 E19.06674
G1 X151.1 Y169.9 E19.3685
G1 X150.35 Y169.9 E19.39219
G1 X150.35 Y160.35 E19.69395
G1 F2700 E14.69395
;MESH:LID L.stl
G0 F6000 X147.755 Y160.35
G0 X147.175 Y169.5
;TYPE:WALL-INNER
G1 F2700 E19.69395
G1 F1200 X147.175 Y145.5 E20.45228
G1 X140.567 Y145.5 E20.66107
G1 X141.078 Y145.713 E20.67856
G1 X141.479 Y145.954 E20.69335
G1 X141.944 Y146.332 E20.71228
G1 X142.37 Y146.866 E20.73387
G1 X142.687 Y147.494 E20.75609
G1 X142.832 Y148.066 E20.77474
G1 X142.898 Y148.624 E20.79249
G1 X142.836 Y149.24 E20.81205
G1 X142.697 Y149.801 E20.83032
G1 X142.44 Y150.326 E20.84879
G1 X142.114 Y150.802 E20.86702
G1 X141.587 Y151.302 E20.88997
G1 X141.098 Y151.599 E20.90805
G1 X140.676 Y151.779 E20.92254
G1 X140.139 Y151.923 E20.94011
G1 X139.557 Y151.965 E20.95855
G1 X138.946 Y151.913 E20.97792
G1 X138.275 Y151.704 E21.00013
G1 X137.776 Y151.423 E21.01822
G1 X137.413 Y151.147 E21.03263
G1 X137.079 Y150.81 E21.04762
G1 X136.793 Y150.426 E21.06275
G1 X136.568 Y150.003 E21.07789
G1 X136.426 Y149.606 E21.09121
G1 X136.425 Y153 E21.19846
G1 X140.425 Y153 E21.32484
G1 X140.771 Y153.061 E21.33595
G1 X141.054 Y153.221 E21.34622
G1 X141.31 Y153.532 E21.35894
G1 X141.384 Y153.715 E21.36518
G1 X141.425 Y154 E21.37428
G1 X141.425 Y161.131 E21.5996
G1 X141.321 Y161.446 E21.61008
G1 X141.155 Y161.685 E21.61928
G1 X140.919 Y161.87 E21.62875
G1 X140.575 Y162 E21.64037
G1 X136.426 Y162.001 E21.77147
G1 X136.429 Y165.369 E21.87789
G1 X136.573 Y164.99 E21.8907
G1 X136.796 Y164.571 E21.90569
G1 X137.06 Y164.213 E21.91975
G1 X137.403 Y163.859 E21.93532
G1 X137.761 Y163.589 E21.94949
G1 X138.255 Y163.305 E21.9675
G1 X138.815 Y163.126 E21.98607
G1 X139.398 Y163.032 E22.00473
G1 X140.11 Y163.066 E22.02725
G1 X140.652 Y163.214 E22.04501
G1 X141.081 Y163.392 E22.05968
G1 X141.482 Y163.638 E22.07455
G1 X141.938 Y164.004 E22.09302
G1 X142.368 Y164.542 E22.11478
G1 X142.687 Y165.172 E22.1371
G1 X142.834 Y165.736 E22.15551
G1 X142.895 Y166.331 E22.17441
G1 X142.835 Y166.923 E22.19321
G1 X142.695 Y167.485 E22.21151
G1 X142.382 Y168.113 E22.23368
G1 X142.025 Y168.567 E22.25193
G1 X141.606 Y168.969 E22.27028
G1 X141.097 Y169.278 E22.28909
G1 X140.577 Y169.499 E22.30695
G1 X147.175 Y169.5 E22.51543
G0 F6000 X138.654 Y169.499
G1 F1200 X138.276 Y169.382 E22.52793
G1 X137.67 Y169.042 E22.54988
G1 X137.149 Y168.583 E22.57182
G1 X136.796 Y168.107 E22.59055
G1 X136.562 Y167.675 E22.60607
G1 X136.425 Y167.283 E22.61919
G1 X136.425 Y169.5 E22.68924
G1 X138.654 Y169.499 E22.75967
G0 F6000 X140.163 Y169.486
G0 X140.135 Y169.267
G1 F879.1 X139.809 Y169.299 E22.7738
G1 F892.2 X139.297 Y169.294 E22.79556
G1 F868 X138.959 Y169.255 E22.81042
G1 F895.5 X138.87 Y169.203 E22.81479
G1 F1002.1 X138.625 Y169.093 E22.82495
G1 F1126.8 X138.38 Y168.982 E22.834
G1 F1200 X137.902 Y168.714 E22.85132
G1 X137.443 Y168.309 E22.87066
G1 X137.16 Y167.927 E22.88568
G1 X136.933 Y167.52 E22.90041
G1 X136.811 Y167.181 E22.91179
G1 F1012.7 X136.644 Y166.778 E22.92812
G1 F888.9 X136.622 Y166.406 E22.94402
G1 F895.5 X136.634 Y166.141 E22.95525
G1 F879.1 X136.647 Y165.876 E22.96669
G1 F973.6 X136.767 Y165.588 E22.97884
G1 F1151.1 X136.808 Y165.508 E22.9818
G1 F1200 X136.954 Y165.125 E22.99476
G1 X137.133 Y164.787 E23.00684
G1 X137.344 Y164.501 E23.01807
G1 X137.634 Y164.195 E23.03139
G1 X137.979 Y163.924 E23.04525
G1 X138.416 Y163.674 E23.06116
G1 X138.908 Y163.517 E23.07748
G1 X139.431 Y163.432 E23.09422
G1 X140.046 Y163.463 E23.11368
G1 X140.486 Y163.583 E23.12809
G1 X140.857 Y163.732 E23.14072
G1 X141.251 Y163.964 E23.15517
G1 X141.653 Y164.293 E23.17158
G1 X142.031 Y164.761 E23.19059
G1 X142.311 Y165.316 E23.21023
G1 X142.444 Y165.849 E23.22759
G1 X142.495 Y166.331 E23.24291
G1 X142.441 Y166.852 E23.25946
G1 X142.317 Y167.348 E23.27561
G1 X142.042 Y167.9 E23.2951
G1 X141.7 Y168.324 E23.31231
G1 X141.36 Y168.65 E23.32719
G1 X140.879 Y168.936 E23.34487
G1 X140.504 Y169.09 E23.35768
G1 F1004.2 X140.135 Y169.267 E23.37314
G0 F6000 X140.721 Y168.568
;TYPE:WALL-OUTER
G1 F1200 X140.397 Y168.704 E23.38424
G1 X140.073 Y168.792 E23.39485
G1 X139.749 Y168.834 E23.40517
G1 X139.369 Y168.829 E23.41718
G1 X139.004 Y168.771 E23.42886
G1 X138.614 Y168.65 E23.44176
G1 X138.119 Y168.372 E23.4597
G1 X137.756 Y168.052 E23.47499
G1 X137.482 Y167.689 E23.48936
G1 X137.292 Y167.338 E23.50197
G1 X137.187 Y167.046 E23.51177
G1 X137.111 Y166.697 E23.52306
G1 X137.086 Y166.372 E23.53336
G1 X137.109 Y166.002 E23.54507
G1 X137.184 Y165.646 E23.55657
G1 X137.308 Y165.313 E23.5678
G1 X137.481 Y164.99 E23.57937
G1 X137.666 Y164.739 E23.58923
G1 X137.921 Y164.474 E23.60085
G1 X138.197 Y164.26 E23.61188
G1 X138.561 Y164.052 E23.62513
G1 X139.013 Y163.905 E23.64015
G1 X139.432 Y163.837 E23.65356
G1 X140.002 Y163.866 E23.67159
G1 X140.381 Y163.969 E23.684
G1 X140.73 Y164.115 E23.69595
G1 X141.019 Y164.29 E23.70663
G1 X141.382 Y164.588 E23.72147
G1 X141.703 Y164.998 E23.73792
G1 X141.924 Y165.436 E23.75342
G1 X142.041 Y165.866 E23.7675
G1 X142.095 Y166.331 E23.7823
G1 X142.047 Y166.781 E23.7966
G1 X141.931 Y167.226 E23.81113
G1 X141.713 Y167.664 E23.82659
G1 X141.423 Y168.035 E23.84146
