;FLAVOR:Marlin
;TIME:379
;Filament used: 0.126692m
;Layer height: 0.2
;MINX:141.89
;MINY:140
;MINZ:0.2
;MAXX:173.111
;MAXY:175
;MAXZ:6
;Generated with Cura_SteamEngine main
M82 ;absolute extrusion mode
; START OF PREHEAT AND HOMEING SEQUENCE
M107 ;Turn off part cooling blowers
M140 S50 ;Start heating bed
M104 S200 ;Start heating extruder

; Home and move to center of the bed
G1 Z2.0 F3000; Move Z Axis up to prevent scratching bed
G28 ;Home all axes
G1 Z50.0 F3000 ;Move Z Axis up
M190 S50 ;Wait for bed to reach temp before proceeding
M109 S200 ;Wait for extruder to reach temp before proceeding
G1 Z10.0 F3000 ;Move Z Axis down
G28 Z ;Home Z when temperature is reached
G1 Z50.0 F3000 ;Move Z Axis up
G4 S5 ;Wait 5 seconds to manually clean nozzle
; END OF PREHEAT AND HOMEING SEQUENCE

M201 X500.00 Y500.00 Z100.00 E5000.00 ;Setup machine max acceleration
M203 X500.00 Y500.00 Z10.00 E50.00 ;Setup machine max feedrate
M204 P500.00 R1000.00 T500.00 ;Setup Print/Retract/Travel acceleration
M205 X8.00 Y8.00 Z0.40 E5.00 ;Setup Jerk
M220 S100 ;Reset Feedrate
M221 S100 ;Reset Flowrate
M420 S1 Z2 ;Enable ABL using saved Mesh and Fade Height

G92 E0 ;Reset Extruder
G1 Z2.0 F3000 ;Move Z Axis up
G1 X10.1 Y20 Z0.28 F5000.0 ;Move to start position
G1 X10.1 Y200.0 Z0.28 F1500.0 E15 ;Draw the first line
G1 X10.4 Y200.0 Z0.28 F5000.0 ;Move to side a little
G1 X10.4 Y20 Z0.28 F1500.0 E30 ;Draw the second line
G92 E0 ;Reset Extruder
G1 Z2.0 F3000 ;Move Z Axis up
G92 E0
G92 E0
G1 F2700 E-5
;LAYER_COUNT:30
;LAYER:0
M107
G0 F6000 X148.2 Y143.263 Z0.2
G0 X145.992 Y146.348
;TYPE:SKIRT
G1 F2700 E0
G1 F1200 X146.491 Y145.49 E0.03136
G1 X146.997 Y144.7 E0.061
G1 X147.568 Y143.956 E0.09064
G1 X148.2 Y143.263 E0.12027
G1 X148.889 Y142.627 E0.1499
G1 X149.63 Y142.052 E0.17954
G1 X150.417 Y141.542 E0.20917
G1 X151.245 Y141.101 E0.23881
G1 X152.107 Y140.732 E0.26844
G1 X152.998 Y140.438 E0.29808
G1 X153.91 Y140.22 E0.32771
G1 X154.837 Y140.082 E0.35733
G1 X155.781 Y140.022 E0.38721
G1 X157.005 Y140 E0.42589
G1 X158.45 Y140.001 E0.47155
G1 X159.151 Y140.011 E0.4937
G1 X160.087 Y140.064 E0.52333
G1 X161.016 Y140.197 E0.55298
G1 X161.929 Y140.409 E0.5826
G1 X162.822 Y140.697 E0.61224
G1 X163.686 Y141.061 E0.64187
G1 X164.517 Y141.497 E0.67152
G1 X165.307 Y142.002 E0.70114
G1 X166.051 Y142.572 E0.73076
G1 X166.744 Y143.204 E0.76039
G1 X167.381 Y143.893 E0.79004
G1 X167.957 Y144.633 E0.81967
G1 X168.437 Y145.368 E0.84741
G1 X168.794 Y145.968 E0.86947
G1 X169.588 Y147.338 E0.9195
G1 X170.64 Y149.051 E0.98302
G1 X170.995 Y149.642 E1.00481
G1 X171.525 Y150.638 E1.04045
G1 X171.727 Y151.069 E1.05549
G1 X172.162 Y152.139 E1.09199
G1 X172.351 Y152.685 E1.11025
G1 X172.62 Y153.583 E1.13987
G1 X172.733 Y154.079 E1.15594
G1 X172.841 Y154.607 E1.17297
G1 X173.004 Y155.659 E1.20661
G1 X173.048 Y156.077 E1.21989
G1 X173.098 Y156.769 E1.24181
G1 X173.109 Y157.032 E1.25013
G1 X173.111 Y157.909 E1.27784
G1 X173.076 Y158.576 E1.29894
G1 X173.049 Y158.915 E1.30969
G1 X172.95 Y159.755 E1.33641
G1 X172.886 Y160.161 E1.3494
G1 X172.725 Y160.977 E1.37568
G1 X172.665 Y161.231 E1.38393
G1 X172.406 Y162.148 E1.41403
G1 X172.249 Y162.624 E1.42987
G1 X171.808 Y163.751 E1.46811
G1 X171.643 Y164.112 E1.48065
G1 X171.37 Y164.67 E1.50028
G1 X170.963 Y165.409 E1.52694
G1 X169.009 Y168.65 E1.64652
G1 X168.514 Y169.503 E1.67768
G1 X168.009 Y170.293 E1.7073
G1 X167.439 Y171.037 E1.73692
G1 X166.807 Y171.73 E1.76655
G1 X166.118 Y172.367 E1.7962
G1 X165.378 Y172.943 E1.82583
G1 X164.591 Y173.454 E1.85548
G1 X163.764 Y173.895 E1.8851
G1 X162.902 Y174.265 E1.91473
G1 X162.012 Y174.56 E1.94436
G1 X161.1 Y174.778 E1.97399
G1 X160.172 Y174.917 E2.00364
G1 X159.22 Y174.978 E2.03378
G1 X157.995 Y175 E2.07249
G1 X156.55 Y174.999 E2.11815
G1 X155.849 Y174.989 E2.1403
G1 X154.913 Y174.936 E2.16993
G1 X153.984 Y174.803 E2.19958
G1 X153.071 Y174.591 E2.22919
G1 X152.178 Y174.303 E2.25884
G1 X151.314 Y173.939 E2.28847
G1 X150.483 Y173.503 E2.31812
G1 X149.693 Y172.998 E2.34774
G1 X148.949 Y172.428 E2.37736
G1 X148.256 Y171.796 E2.40699
G1 X147.619 Y171.107 E2.43664
G1 X147.043 Y170.367 E2.46627
G1 X146.562 Y169.63 E2.49408
G1 X146.182 Y168.992 E2.51754
G1 X145.387 Y167.619 E2.56767
G1 X144.049 Y165.43 E2.64874
G1 X143.47 Y164.352 E2.6874
G1 X143.268 Y163.92 E2.70247
G1 X142.833 Y162.848 E2.73902
G1 X142.645 Y162.303 E2.75724
G1 X142.378 Y161.404 E2.78687
G1 X142.268 Y160.924 E2.80243
G1 X142.16 Y160.397 E2.81943
G1 X141.996 Y159.341 E2.8532
G1 X141.952 Y158.923 E2.86648
G1 X141.901 Y158.214 E2.88894
G1 X141.89 Y157.941 E2.89757
G1 X141.89 Y157.061 E2.92538
G1 X141.924 Y156.424 E2.94553
G1 X141.951 Y156.085 E2.95628
G1 X142.05 Y155.245 E2.983
G1 X142.114 Y154.839 E2.99599
G1 X142.275 Y154.023 E3.02227
G1 X142.335 Y153.769 E3.03052
G1 X142.594 Y152.852 E3.06062
G1 X142.751 Y152.376 E3.07646
G1 X143.192 Y151.249 E3.1147
G1 X143.357 Y150.888 E3.12724
G1 X143.63 Y150.33 E3.14687
G1 X144.037 Y149.591 E3.17353
G1 X145.992 Y146.348 E3.29318
G1 F2700 E-1.70682
G0 F6000 X142.689 Y157.092
G1 F2700 E3.29318
G1 F1200 X142.721 Y156.487 E3.31232
G1 X142.748 Y156.148 E3.32307
G1 X142.84 Y155.37 E3.34782
G1 X142.904 Y154.964 E3.36081
G1 X143.053 Y154.207 E3.38518
G1 X143.113 Y153.953 E3.39343
G1 X143.353 Y153.103 E3.42134
G1 X143.51 Y152.627 E3.43718
G1 X143.92 Y151.582 E3.47264
G1 X144.085 Y151.221 E3.48519
G1 X144.344 Y150.689 E3.50388
G1 X144.723 Y150.004 E3.52862
G1 X146.667 Y146.78 E3.64757
G1 X147.183 Y145.892 E3.68002
G1 X147.671 Y145.132 E3.70856
G1 X148.224 Y144.419 E3.73707
G1 X148.839 Y143.757 E3.76562
G1 X149.509 Y143.152 E3.79415
G1 X150.231 Y142.608 E3.82271
G1 X150.997 Y142.131 E3.85122
G1 X151.803 Y141.723 E3.87977
G1 X152.642 Y141.389 E3.9083
G1 X153.507 Y141.129 E3.93684
G1 X154.392 Y140.948 E3.96538
G1 X155.289 Y140.845 E3.99391
G1 X155.797 Y140.822 E4.00998
G1 X157.005 Y140.8 E4.04816
G1 X158.293 Y140.8 E4.08885
G1 X159.139 Y140.811 E4.11559
G1 X160.041 Y140.864 E4.14414
G1 X160.934 Y140.996 E4.17266
G1 X161.813 Y141.207 E4.20122
G1 X162.669 Y141.495 E4.22976
G1 X163.496 Y141.857 E4.25828
G1 X164.288 Y142.291 E4.28682
G1 X165.038 Y142.794 E4.31535
G1 X165.741 Y143.361 E4.34389
G1 X166.391 Y143.987 E4.3724
G1 X166.984 Y144.669 E4.40096
G1 X167.75 Y145.779 E4.44357
G1 X168.102 Y146.369 E4.46528
G1 X168.897 Y147.741 E4.51539
G1 X169.9 Y149.373 E4.57591
G1 X170.309 Y150.054 E4.60101
G1 X170.801 Y150.977 E4.63406
G1 X171.003 Y151.408 E4.6491
G1 X171.406 Y152.4 E4.68293
G1 X171.595 Y152.946 E4.70119
G1 X171.949 Y154.239 E4.74355
G1 X172.057 Y154.767 E4.76058
G1 X172.208 Y155.743 E4.79178
G1 X172.252 Y156.161 E4.80506
G1 X172.299 Y156.803 E4.8254
G1 X172.31 Y157.066 E4.83372
G1 X172.312 Y157.878 E4.85938
G1 X172.279 Y158.513 E4.87947
G1 X172.252 Y158.852 E4.89021
G1 X172.16 Y159.63 E4.91497
G1 X172.096 Y160.036 E4.92795
G1 X171.947 Y160.793 E4.95233
G1 X171.887 Y161.047 E4.96058
G1 X171.647 Y161.897 E4.98849
G1 X171.49 Y162.373 E5.00432
G1 X171.08 Y163.418 E5.03979
G1 X170.915 Y163.779 E5.05233
G1 X170.656 Y164.311 E5.07103
G1 X170.277 Y164.996 E5.09577
G1 X168.333 Y168.22 E5.21472
G1 X167.822 Y169.101 E5.2469
G1 X167.335 Y169.861 E5.27542
G1 X166.782 Y170.575 E5.30396
G1 X166.168 Y171.238 E5.33251
G1 X165.498 Y171.843 E5.36104
G1 X164.777 Y172.387 E5.38957
G1 X164.011 Y172.865 E5.4181
G1 X163.205 Y173.273 E5.44665
G1 X162.367 Y173.609 E5.47518
G1 X161.502 Y173.869 E5.50371
G1 X160.617 Y174.051 E5.53226
G1 X159.72 Y174.155 E5.5608
G1 X159.204 Y174.178 E5.57712
G1 X157.995 Y174.2 E5.61532
G1 X156.562 Y174.199 E5.6606
G1 X155.861 Y174.189 E5.68275
G1 X154.959 Y174.136 E5.7113
G1 X154.066 Y174.004 E5.73983
G1 X153.187 Y173.793 E5.76839
G1 X152.331 Y173.505 E5.79693
G1 X151.504 Y173.143 E5.82545
G1 X150.712 Y172.709 E5.85399
G1 X149.962 Y172.206 E5.88252
G1 X149.259 Y171.639 E5.91106
G1 X148.609 Y171.013 E5.93957
G1 X148.016 Y170.331 E5.96813
G1 X147.249 Y169.22 E6.01079
G1 X146.945 Y168.711 E6.02952
G1 X146.102 Y167.256 E6.08265
G1 X144.731 Y165.013 E6.16571
G1 X144.194 Y164.013 E6.20158
G1 X143.992 Y163.581 E6.21665
G1 X143.59 Y162.587 E6.25053
G1 X143.402 Y162.042 E6.26874
G1 X143.052 Y160.764 E6.31061
G1 X142.944 Y160.237 E6.32761
G1 X142.792 Y159.257 E6.35894
G1 X142.748 Y158.839 E6.37222
G1 X142.7 Y158.182 E6.39304
G1 X142.689 Y157.909 E6.40167
G1 X142.689 Y157.092 E6.42749
G0 F6000 X142.289 Y157.076
G1 F1200 X142.322 Y156.455 E6.44714
G1 X142.349 Y156.116 E6.45788
G1 X142.445 Y155.307 E6.48362
G1 X142.509 Y154.901 E6.49661
G1 X142.664 Y154.115 E6.52192
G1 X142.724 Y153.861 E6.53017
G1 X142.973 Y152.978 E6.55916
G1 X143.13 Y152.502 E6.575
G1 X143.556 Y151.416 E6.61186
G1 X143.721 Y151.055 E6.6244
G1 X143.987 Y150.51 E6.64356
G1 X144.38 Y149.797 E6.66928
G1 X146.337 Y146.55 E6.78907
G1 X146.837 Y145.691 E6.82048
G1 X147.334 Y144.916 E6.84957
G1 X147.896 Y144.187 E6.87865
G1 X148.52 Y143.51 E6.90775
G1 X149.2 Y142.889 E6.93684
G1 X149.931 Y142.33 E6.96592
G1 X150.708 Y141.836 E6.99501
G1 X151.525 Y141.411 E7.02411
G1 X152.375 Y141.059 E7.05318
G1 X153.253 Y140.782 E7.08227
G1 X154.152 Y140.582 E7.11137
G1 X155.065 Y140.461 E7.14047
G1 X155.789 Y140.422 E7.16338
G1 X156.794 Y140.402 E7.19514
G1 X158.293 Y140.4 E7.24251
G1 X159.145 Y140.411 E7.26943
G1 X160.064 Y140.464 E7.29852
G1 X160.975 Y140.597 E7.32761
G1 X161.871 Y140.808 E7.35669
G1 X162.746 Y141.096 E7.3858
G1 X163.592 Y141.459 E7.41489
G1 X164.403 Y141.894 E7.44396
G1 X165.174 Y142.398 E7.47307
G1 X165.898 Y142.967 E7.50217
G1 X166.57 Y143.596 E7.53125
G1 X167.185 Y144.281 E7.56034
G1 X167.738 Y145.017 E7.58942
G1 X168.094 Y145.573 E7.61029
G1 X168.376 Y146.045 E7.62766
G1 X169.251 Y147.555 E7.6828
G1 X170.297 Y149.257 E7.74592
G1 X170.652 Y149.848 E7.76771
G1 X171.163 Y150.808 E7.80207
G1 X171.365 Y151.239 E7.81711
G1 X171.784 Y152.27 E7.85227
G1 X171.973 Y152.816 E7.87053
G1 X172.236 Y153.698 E7.89961
G1 X172.341 Y154.159 E7.91455
G1 X172.449 Y154.687 E7.93158
G1 X172.606 Y155.701 E7.964
G1 X172.65 Y156.119 E7.97728
G1 X172.699 Y156.786 E7.99841
G1 X172.71 Y157.049 E8.00673
G1 X172.711 Y157.894 E8.03343
G1 X172.678 Y158.545 E8.05403
G1 X172.651 Y158.884 E8.06477
G1 X172.555 Y159.693 E8.09051
G1 X172.491 Y160.099 E8.1035
G1 X172.336 Y160.885 E8.12881
G1 X172.276 Y161.139 E8.13706
G1 X172.027 Y162.022 E8.16605
G1 X171.87 Y162.498 E8.18189
G1 X171.444 Y163.584 E8.21875
G1 X171.279 Y163.945 E8.23129
G1 X171.013 Y164.49 E8.25045
G1 X170.62 Y165.203 E8.27617
G1 X168.663 Y168.449 E8.39594
G1 X168.168 Y169.302 E8.4271
G1 X167.672 Y170.077 E8.45617
G1 X167.11 Y170.806 E8.48526
G1 X166.487 Y171.484 E8.51435
G1 X165.808 Y172.106 E8.54345
G1 X165.077 Y172.666 E8.57254
G1 X164.301 Y173.16 E8.60161
G1 X163.484 Y173.585 E8.63071
G1 X162.634 Y173.938 E8.65979
G1 X161.756 Y174.216 E8.68889
G1 X160.857 Y174.416 E8.71799
G1 X159.945 Y174.538 E8.74706
G1 X159.212 Y174.578 E8.77026
G1 X157.995 Y174.6 E8.80872
G1 X156.556 Y174.599 E8.85419
G1 X155.855 Y174.589 E8.87634
G1 X154.936 Y174.536 E8.90542
G1 X154.025 Y174.403 E8.93451
G1 X153.129 Y174.192 E8.9636
G1 X152.254 Y173.904 E8.99271
G1 X151.408 Y173.541 E9.02179
G1 X150.597 Y173.106 E9.05087
G1 X149.826 Y172.602 E9.07998
G1 X149.102 Y172.033 E9.10907
G1 X148.43 Y171.404 E9.13816
G1 X147.815 Y170.719 E9.16724
G1 X147.262 Y169.983 E9.19633
G1 X146.906 Y169.425 E9.21725
G1 X146.528 Y168.792 E9.24054
G1 X145.735 Y167.423 E9.29053
G1 X144.39 Y165.222 E9.37203
G1 X143.832 Y164.183 E9.4093
G1 X143.63 Y163.751 E9.42437
G1 X143.211 Y162.718 E9.45959
G1 X143.023 Y162.173 E9.4778
G1 X142.66 Y160.844 E9.52134
G1 X142.552 Y160.317 E9.53833
G1 X142.394 Y159.299 E9.57088
G1 X142.35 Y158.881 E9.58417
G1 X142.301 Y158.198 E9.6058
G1 X142.29 Y157.925 E9.61443
G1 X142.289 Y157.076 E9.64126
G1 F2700 E4.64126
;MESH:DIMTST.stl
G0 F6000 X155.062 Y159.88
G0 X156.941 Y160.683
;TYPE:WALL-INNER
G1 F2700 E9.64126
G1 F1200 X156.486 Y160.566 E9.6561
G1 X156.112 Y160.412 E9.66888
G1 X155.726 Y160.203 E9.68275
G1 X155.426 Y159.97 E9.69476
G1 X155.165 Y159.728 E9.706
G1 X154.932 Y159.454 E9.71737
G1 X154.75 Y159.186 E9.7276
G1 X154.603 Y158.921 E9.73718
G1 X154.488 Y158.654 E9.74636
G1 X154.383 Y158.331 E9.7571
G1 X154.31 Y157.982 E9.76836
G1 X154.278 Y157.676 E9.77808
G1 X154.278 Y157.373 E9.78766
G1 X154.315 Y156.965 E9.8006
G1 X154.441 Y156.456 E9.81717
G1 X154.597 Y156.093 E9.82965
G1 X154.747 Y155.819 E9.83952
G1 X154.936 Y155.542 E9.85012
G1 X155.225 Y155.205 E9.86415
G1 X155.515 Y154.956 E9.87623
G1 X155.765 Y154.781 E9.88587
G1 X156.045 Y154.621 E9.89606
G1 X156.344 Y154.489 E9.90638
G1 X156.713 Y154.371 E9.91863
G1 X157.033 Y154.309 E9.92892
G1 X157.306 Y154.28 E9.9376
G1 X157.686 Y154.28 E9.94961
G1 X158.103 Y154.328 E9.96287
G1 X158.514 Y154.434 E9.97628
G1 X158.87 Y154.58 E9.98844
G1 X159.281 Y154.802 E10.0032
G1 X159.581 Y155.035 E10.0152
G1 X159.813 Y155.249 E10.02517
G1 X160.031 Y155.496 E10.03558
G1 X160.237 Y155.788 E10.04687
G1 X160.398 Y156.077 E10.05733
G1 X160.531 Y156.398 E10.06831
G1 X160.628 Y156.708 E10.07857
G1 X160.69 Y157.016 E10.0885
G1 X160.722 Y157.324 E10.09828
G1 X160.724 Y157.661 E10.10893
G1 X160.679 Y158.081 E10.12228
G1 X160.559 Y158.543 E10.13736
G1 X160.405 Y158.908 E10.14988
G1 X160.254 Y159.182 E10.15976
G1 X160.067 Y159.46 E10.17035
G1 X159.775 Y159.798 E10.18446
G1 X159.486 Y160.045 E10.19647
G1 X159.234 Y160.221 E10.20618
G1 X158.9 Y160.405 E10.21823
G1 X158.656 Y160.511 E10.22664
G1 X158.349 Y160.613 E10.23686
G1 X158.025 Y160.683 E10.24733
G1 X157.694 Y160.72 E10.25786
G1 X157.314 Y160.72 E10.26987
G1 X156.941 Y160.683 E10.28171
G0 F6000 X157.658 Y160.322
;TYPE:WALL-OUTER
G1 F1200 X157.353 Y160.322 E10.29135
G1 X157.027 Y160.29 E10.3017
G1 X156.571 Y160.173 E10.31657
G1 X156.269 Y160.044 E10.32695
G1 X155.935 Y159.858 E10.33903
G1 X155.658 Y159.642 E10.35013
G1 X155.452 Y159.449 E10.35905
G1 X155.271 Y159.239 E10.36781
G1 X155.104 Y158.999 E10.37704
G1 X154.964 Y158.747 E10.38615
G1 X154.849 Y158.477 E10.39543
G1 X154.763 Y158.203 E10.4045
G1 X154.707 Y157.925 E10.41346
G1 X154.678 Y157.653 E10.4221
G1 X154.678 Y157.373 E10.43095
G1 X154.711 Y157.019 E10.44218
G1 X154.827 Y156.571 E10.45681
G1 X154.959 Y156.264 E10.46737
G1 X155.095 Y156.017 E10.47628
G1 X155.258 Y155.779 E10.48539
G1 X155.484 Y155.511 E10.49647
G1 X155.773 Y155.262 E10.50852
G1 X156.009 Y155.1 E10.51756
G1 X156.258 Y154.962 E10.52656
G1 X156.502 Y154.857 E10.53495
G1 X156.794 Y154.763 E10.54465
G1 X157.075 Y154.707 E10.5537
G1 X157.342 Y154.678 E10.56219
G1 X157.647 Y154.678 E10.57182
G1 X158.003 Y154.716 E10.58314
G1 X158.405 Y154.819 E10.59625
G1 X158.729 Y154.956 E10.60736
G1 X159.055 Y155.134 E10.6191
G1 X159.331 Y155.348 E10.63013
G1 X159.546 Y155.549 E10.63943
G1 X159.738 Y155.773 E10.64876
G1 X159.895 Y155.999 E10.65745
G1 X160.036 Y156.251 E10.66657
G1 X160.15 Y156.52 E10.67581
G1 X160.236 Y156.794 E10.68488
G1 X160.293 Y157.068 E10.69372
G1 X160.323 Y157.359 E10.70297
G1 X160.322 Y157.647 E10.71207
G1 X160.287 Y157.996 E10.72315
G1 X160.179 Y158.415 E10.73682
G1 X160.042 Y158.736 E10.74785
G1 X159.906 Y158.983 E10.75676
G1 X159.743 Y159.222 E10.7659
G1 X159.503 Y159.503 E10.77758
G1 X159.237 Y159.731 E10.78865
G1 X159.007 Y159.891 E10.7975
G1 X158.742 Y160.038 E10.80707
G1 X158.498 Y160.143 E10.81547
G1 X158.206 Y160.237 E10.82516
G1 X157.944 Y160.291 E10.83361
G1 X157.658 Y160.322 E10.8427
G1 F2700 E5.8427
G0 F6000 X157.798 Y160.81
G0 X156.97 Y160.868
G0 X156.325 Y161.584
G0 X156.599 Y163.4
;TYPE:WALL-INNER
G1 F2700 E10.8427
G1 F1200 X158.401 Y163.4 E10.89964
G1 X158.403 Y162.785 E10.91907
G1 X158.593 Y162.135 E10.94047
G1 X158.864 Y161.607 E10.95922
G1 X159.354 Y161.113 E10.98121
G1 X159.886 Y160.74 E11.00174
G1 X160.13 Y160.546 E11.01159
G1 X160.405 Y160.292 E11.02341
G1 X160.657 Y159.992 E11.03579
G1 X160.879 Y159.689 E11.04766
G1 X161.07 Y159.356 E11.05979
G1 X161.234 Y159.008 E11.07195
G1 X161.385 Y158.561 E11.08686
G1 X161.466 Y158.18 E11.09916
G1 X161.505 Y157.89 E11.10841
G1 X161.527 Y157.501 E11.12072
G1 X161.506 Y157.121 E11.13275
G1 X161.463 Y156.8 E11.14298
G1 X161.389 Y156.453 E11.15419
G1 X161.238 Y155.996 E11.1694
G1 X161.038 Y155.578 E11.18404
G1 X160.83 Y155.243 E11.1965
