;FLAVOR:Marlin
;TIME:1324
;Filament used: 0.624865m
;Layer height: 0.16
;MINX:124.425
;MINY:133.497
;MINZ:0.2
;MAXX:176.25
;MAXY:181.503
;MAXZ:6.36
;Generated with Cura_SteamEngine main
M82 ;absolute extrusion mode
; START OF PREHEAT AND HOMEING SEQUENCE
M107 ;Turn off part cooling blowers
M140 S50 ;Start heating bed
M104 S200 ;Start heating extruder

; Home and move to center of the bed
G1 Z2.0 F3000; Move Z Axis up to prevent scratching bed
G28 ;Home
M420 S1 Z2 ; Use ABL to center on the bed
G1 Z62.0 F1000; Move Z Axis up to manual addjust steppers
M190 S50 ;Wait for bed to reach temp before proceeding
M109 S200 ;Wait for extruder to reach temp before proceeding
G28 ;Home and reset leveling
; END OF PREHEAT AND HOMEING SEQUENCE

M201 X500.00 Y500.00 Z100.00 E5000.00 ;Setup machine max acceleration
M203 X500.00 Y500.00 Z10.00 E50.00 ;Setup machine max feedrate
M204 P500.00 R1000.00 T500.00 ;Setup Print/Retract/Travel acceleration
M205 X8.00 Y8.00 Z0.40 E5.00 ;Setup Jerk
M220 S100 ;Reset Feedrate
M221 S100 ;Reset Flowrate
M420 S1 Z2 ;Enable ABL using saved Mesh and Fade Height

G92 E0 ;Reset Extruder
G1 Z2.0 F3000 ;Move Z Axis up
G1 X10.1 Y20 Z0.28 F5000.0 ;Move to start position
G1 X10.1 Y200.0 Z0.28 F1500.0 E15 ;Draw the first line
G1 X10.4 Y200.0 Z0.28 F5000.0 ;Move to side a little
G1 X10.4 Y20 Z0.28 F1500.0 E30 ;Draw the second line
G92 E0 ;Reset Extruder
G1 Z2.0 F3000 ;Move Z Axis up
G92 E0
G92 E0
G1 F2700 E-5
;LAYER_COUNT:34
;LAYER:0
M107
G0 F6000 X127.623 Y136.764 Z0.2
G0 X124.426 Y145.025
;TYPE:SKIRT
G1 F2700 E0
G1 F1200 X124.435 Y144.36 E0.01996
G1 X124.488 Y143.424 E0.0481
G1 X124.62 Y142.495 E0.07627
G1 X124.831 Y141.581 E0.10443
G1 X125.119 Y140.689 E0.13256
G1 X125.482 Y139.824 E0.16072
G1 X125.917 Y138.993 E0.18888
G1 X126.421 Y138.203 E0.21701
G1 X126.991 Y137.458 E0.24516
G1 X127.623 Y136.764 E0.27334
G1 X128.311 Y136.127 E0.30148
G1 X129.051 Y135.551 E0.32963
G1 X129.837 Y135.039 E0.35779
G1 X130.664 Y134.597 E0.38594
G1 X131.526 Y134.227 E0.4141
G1 X132.416 Y133.931 E0.44225
G1 X133.328 Y133.713 E0.4704
G1 X134.255 Y133.572 E0.49854
G1 X135.126 Y133.513 E0.52475
G1 X135.759 Y133.5 E0.54375
G1 X149.441 Y133.505 E0.95445
G1 X151.703 Y133.497 E1.02235
G1 X164.701 Y133.501 E1.41251
G1 X165.399 Y133.511 E1.43347
G1 X166.335 Y133.565 E1.46161
G1 X167.263 Y133.697 E1.48975
G1 X168.177 Y133.909 E1.51791
G1 X169.069 Y134.198 E1.54606
G1 X169.934 Y134.561 E1.57422
G1 X170.764 Y134.997 E1.60236
G1 X171.555 Y135.502 E1.63053
G1 X172.299 Y136.073 E1.65868
G1 X172.992 Y136.705 E1.68683
G1 X173.629 Y137.393 E1.71498
G1 X174.204 Y138.134 E1.74313
G1 X174.715 Y138.92 E1.77127
G1 X175.157 Y139.748 E1.79945
G1 X175.526 Y140.61 E1.82759
G1 X175.821 Y141.5 E1.85574
G1 X176.039 Y142.412 E1.88388
G1 X176.179 Y143.34 E1.91206
G1 X176.237 Y144.201 E1.93796
G1 X176.25 Y144.83 E1.95684
G1 X176.249 Y153.414 E2.21451
G1 X176.226 Y155.026 E2.26291
G1 X176.191 Y156.26 E2.29996
G1 X176.191 Y158.771 E2.37534
G1 X176.247 Y161.061 E2.4441
G1 X176.249 Y169.9 E2.70942
G1 X176.24 Y170.627 E2.73124
G1 X176.189 Y171.564 E2.75941
G1 X176.057 Y172.492 E2.78755
G1 X175.848 Y173.406 E2.81569
G1 X175.561 Y174.299 E2.84385
G1 X175.199 Y175.165 E2.87202
G1 X174.765 Y175.996 E2.90016
G1 X174.261 Y176.787 E2.92832
G1 X173.692 Y177.532 E2.95646
G1 X173.061 Y178.227 E2.98463
G1 X172.374 Y178.865 E3.01278
G1 X171.635 Y179.442 E3.04092
G1 X170.849 Y179.954 E3.06908
G1 X170.023 Y180.397 E3.09721
G1 X169.161 Y180.769 E3.12539
G1 X168.272 Y181.065 E3.15352
G1 X167.36 Y181.285 E3.18168
G1 X166.433 Y181.426 E3.20983
G1 X165.549 Y181.487 E3.23642
G1 X164.923 Y181.5 E3.25522
G1 X152.478 Y181.503 E3.62878
G1 X148.43 Y181.495 E3.75029
G1 X135.974 Y181.499 E4.12419
G1 X135.276 Y181.489 E4.14514
G1 X134.34 Y181.435 E4.17329
G1 X133.412 Y181.303 E4.20142
G1 X132.498 Y181.091 E4.22959
G1 X131.606 Y180.802 E4.25773
G1 X130.741 Y180.439 E4.28589
G1 X129.911 Y180.003 E4.31403
G1 X129.12 Y179.498 E4.3422
G1 X128.376 Y178.927 E4.37036
G1 X127.683 Y178.295 E4.39851
G1 X127.046 Y177.607 E4.42665
G1 X126.471 Y176.866 E4.45481
G1 X125.96 Y176.08 E4.48295
G1 X125.518 Y175.252 E4.51112
G1 X125.149 Y174.39 E4.53927
G1 X124.854 Y173.5 E4.56741
G1 X124.636 Y172.588 E4.59556
G1 X124.496 Y171.66 E4.62373
G1 X124.438 Y170.788 E4.64997
G1 X124.425 Y170.158 E4.66888
G1 X124.426 Y161.552 E4.92721
G1 X124.449 Y159.974 E4.97458
G1 X124.484 Y158.74 E5.01164
G1 X124.484 Y156.229 E5.08701
G1 X124.428 Y153.939 E5.15577
G1 X124.426 Y145.025 E5.42334
G0 F6000 X124.826 Y145.031
G1 F1200 X124.835 Y144.366 E5.44331
G1 X124.887 Y143.446 E5.47097
G1 X125.019 Y142.535 E5.4986
G1 X125.23 Y141.639 E5.52623
G1 X125.517 Y140.764 E5.55387
G1 X125.88 Y139.918 E5.58151
G1 X126.314 Y139.106 E5.60914
G1 X126.817 Y138.335 E5.63678
G1 X127.386 Y137.611 E5.66442
G1 X128.014 Y136.939 E5.69203
G1 X128.699 Y136.323 E5.71968
G1 X129.435 Y135.77 E5.74731
G1 X130.216 Y135.282 E5.77496
G1 X131.036 Y134.864 E5.80258
G1 X131.89 Y134.519 E5.83023
G1 X132.77 Y134.249 E5.85786
G1 X133.67 Y134.057 E5.88549
G1 X134.584 Y133.943 E5.91313
G1 X135.137 Y133.913 E5.92976
G1 X135.759 Y133.9 E5.94843
G1 X149.443 Y133.905 E6.35919
G1 X151.702 Y133.897 E6.427
G1 X164.695 Y133.901 E6.81701
G1 X165.393 Y133.911 E6.83797
G1 X166.312 Y133.964 E6.8656
G1 X167.223 Y134.097 E6.89323
G1 X168.119 Y134.308 E6.92087
G1 X168.993 Y134.596 E6.94849
G1 X169.84 Y134.959 E6.97615
G1 X170.651 Y135.394 E7.00377
G1 X171.421 Y135.898 E7.0314
G1 X172.145 Y136.467 E7.05904
G1 X172.817 Y137.097 E7.08669
G1 X173.432 Y137.782 E7.11432
G1 X173.985 Y138.518 E7.14196
G1 X174.472 Y139.299 E7.16958
G1 X174.889 Y140.12 E7.19723
G1 X175.234 Y140.974 E7.22487
G1 X175.503 Y141.854 E7.25249
G1 X175.695 Y142.755 E7.28015
G1 X175.808 Y143.668 E7.30776
G1 X175.837 Y144.212 E7.32411
G1 X175.85 Y144.83 E7.34267
G1 X175.849 Y153.408 E7.60016
G1 X175.826 Y155.015 E7.6484
G1 X175.791 Y156.249 E7.68546
G1 X175.791 Y158.781 E7.76146
G1 X175.85 Y161.33 E7.83799
G1 X175.849 Y169.895 E8.09509
G1 X175.84 Y170.622 E8.11692
G1 X175.789 Y171.541 E8.14455
G1 X175.658 Y172.453 E8.1722
G1 X175.448 Y173.349 E8.19983
G1 X175.162 Y174.224 E8.22746
G1 X174.801 Y175.071 E8.2551
G1 X174.367 Y175.883 E8.28273
G1 X173.865 Y176.655 E8.31038
G1 X173.297 Y177.38 E8.33802
G1 X172.669 Y178.053 E8.36565
G1 X171.985 Y178.669 E8.39328
G1 X171.25 Y179.223 E8.42091
G1 X170.47 Y179.712 E8.44855
G1 X169.65 Y180.131 E8.47619
G1 X168.797 Y180.477 E8.50382
G1 X167.917 Y180.748 E8.53146
G1 X167.017 Y180.941 E8.55909
G1 X166.103 Y181.056 E8.58674
G1 X165.538 Y181.087 E8.60372
G1 X164.923 Y181.1 E8.62219
G1 X152.479 Y181.103 E8.99572
G1 X148.431 Y181.095 E9.11723
G1 X135.98 Y181.099 E9.49098
G1 X135.282 Y181.089 E9.51193
G1 X134.363 Y181.036 E9.53956
G1 X133.452 Y180.903 E9.5672
G1 X132.556 Y180.692 E9.59483
G1 X131.682 Y180.404 E9.62245
G1 X130.835 Y180.041 E9.65012
G1 X130.024 Y179.606 E9.67774
G1 X129.254 Y179.102 E9.70536
G1 X128.53 Y178.533 E9.73301
G1 X127.858 Y177.903 E9.76066
G1 X127.243 Y177.218 E9.78829
G1 X126.69 Y176.482 E9.81592
G1 X126.203 Y175.701 E9.84355
G1 X125.786 Y174.88 E9.87119
G1 X125.441 Y174.026 E9.89884
G1 X125.172 Y173.146 E9.92646
G1 X124.98 Y172.245 E9.95411
G1 X124.867 Y171.332 E9.98173
G1 X124.838 Y170.777 E9.99841
G1 X124.825 Y170.158 E10.017
G1 X124.826 Y161.558 E10.27514
G1 X124.849 Y159.985 E10.32237
G1 X124.884 Y158.751 E10.35942
G1 X124.884 Y156.219 E10.43543
G1 X124.825 Y153.67 E10.51196
G1 X124.826 Y145.031 E10.77128
G0 F6000 X125.226 Y145.036
G1 F1200 X125.235 Y144.371 E10.79124
G1 X125.287 Y143.469 E10.81836
G1 X125.419 Y142.576 E10.84546
G1 X125.629 Y141.698 E10.87256
G1 X125.916 Y140.841 E10.89969
G1 X126.278 Y140.014 E10.92679
G1 X126.711 Y139.222 E10.95388
G1 X127.213 Y138.471 E10.981
G1 X127.78 Y137.767 E11.00813
G1 X128.406 Y137.117 E11.03522
G1 X129.087 Y136.524 E11.06232
G1 X129.819 Y135.994 E11.08945
G1 X130.594 Y135.531 E11.11655
G1 X131.407 Y135.138 E11.14366
G1 X132.252 Y134.818 E11.17078
G1 X133.121 Y134.575 E11.19786
G1 X134.009 Y134.409 E11.22498
G1 X135.148 Y134.313 E11.25929
G1 X135.759 Y134.3 E11.27764
G1 X149.444 Y134.305 E11.68842
G1 X151.702 Y134.297 E11.7562
G1 X164.689 Y134.301 E12.14604
G1 X165.387 Y134.311 E12.16699
G1 X166.289 Y134.364 E12.19411
G1 X167.182 Y134.496 E12.22121
G1 X168.06 Y134.707 E12.24832
G1 X168.916 Y134.995 E12.27543
G1 X169.743 Y135.357 E12.30252
G1 X170.535 Y135.792 E12.32965
G1 X171.286 Y136.294 E12.35676
G1 X171.989 Y136.861 E12.38387
G1 X172.639 Y137.488 E12.41098
G1 X173.231 Y138.17 E12.43809
G1 X173.761 Y138.901 E12.46519
G1 X174.223 Y139.677 E12.4923
G1 X174.616 Y140.49 E12.51941
G1 X174.934 Y141.335 E12.54651
G1 X175.177 Y142.205 E12.57363
G1 X175.342 Y143.093 E12.60074
G1 X175.437 Y144.223 E12.63478
G1 X175.45 Y144.83 E12.653
G1 X175.449 Y153.402 E12.91031
G1 X175.426 Y155.003 E12.95837
G1 X175.391 Y156.237 E12.99543
G1 X175.391 Y158.791 E13.07209
G1 X175.45 Y161.33 E13.14833
G1 X175.449 Y169.89 E13.40527
G1 X175.44 Y170.617 E13.4271
G1 X175.389 Y171.519 E13.45422
G1 X175.258 Y172.413 E13.48134
G1 X175.049 Y173.291 E13.50843
G1 X174.763 Y174.148 E13.53555
G1 X174.402 Y174.976 E13.56266
G1 X173.97 Y175.768 E13.58974
G1 X173.469 Y176.52 E13.61687
G1 X172.903 Y177.224 E13.64398
G1 X172.278 Y177.875 E13.67107
G1 X171.597 Y178.469 E13.6982
G1 X170.866 Y179 E13.72532
G1 X170.092 Y179.464 E13.75241
G1 X169.279 Y179.858 E13.77953
G1 X168.435 Y180.178 E13.80662
G1 X167.565 Y180.423 E13.83375
G1 X166.678 Y180.589 E13.86084
G1 X165.527 Y180.687 E13.89551
G1 X164.922 Y180.7 E13.91368
G1 X152.48 Y180.703 E14.28715
G1 X148.432 Y180.695 E14.40866
G1 X136.136 Y180.7 E14.77776
G1 X135.288 Y180.689 E14.80321
G1 X134.386 Y180.636 E14.83033
G1 X133.493 Y180.504 E14.85743
G1 X132.615 Y180.293 E14.88454
G1 X131.759 Y180.005 E14.91165
G1 X130.932 Y179.643 E14.93874
G1 X130.14 Y179.208 E14.96587
G1 X129.389 Y178.706 E14.99298
G1 X128.686 Y178.139 E15.02009
G1 X128.036 Y177.512 E15.0472
G1 X127.444 Y176.83 E15.07431
G1 X126.914 Y176.099 E15.10142
G1 X126.452 Y175.323 E15.12852
G1 X126.059 Y174.51 E15.15563
G1 X125.741 Y173.665 E15.18273
G1 X125.498 Y172.795 E15.20985
G1 X125.333 Y171.907 E15.23696
G1 X125.238 Y170.766 E15.27133
G1 X125.225 Y170.158 E15.28958
G1 X125.226 Y161.563 E15.54758
G1 X125.249 Y159.997 E15.59459
G1 X125.284 Y158.763 E15.63165
G1 X125.284 Y156.209 E15.70831
G1 X125.225 Y153.67 E15.78455
G1 X125.226 Y145.036 E16.04371
G1 F2700 E11.04371
G0 F6000 X134.772 Y143.847
G0 X148.828 Y143.847
G0 X150.35 Y145.1
G1 F2700 E16.04371
G1 F1200 X151.1 Y145.1 E16.06623
G1 X151.1 Y154.65 E16.35289
G1 X150.35 Y154.65 E16.37541
G1 X150.35 Y145.1 E16.66207
G0 F6000 X149.95 Y144.7
G1 F1200 X151.5 Y144.7 E16.7086
G1 X151.5 Y155.05 E17.01928
G1 X149.95 Y155.05 E17.0658
G1 X149.95 Y144.7 E17.37648
G1 F2700 E12.37648
G0 F6000 X149.95 Y159.95
G1 F2700 E17.37648
G1 F1200 X151.5 Y159.95 E17.42301
G1 X151.5 Y170.3 E17.73369
G1 X149.95 Y170.3 E17.78021
G1 X149.95 Y159.95 E18.09089
G0 F6000 X150.35 Y160.35
G1 F1200 X151.1 Y160.35 E18.11341
G1 X151.1 Y169.9 E18.40007
G1 X150.35 Y169.9 E18.42258
G1 X150.35 Y160.35 E18.70925
G1 F2700 E13.70925
;MESH:Lid L.stl
G0 F6000 X147.755 Y160.35
G0 X147.175 Y169.5
;TYPE:WALL-INNER
G1 F2700 E18.70925
G1 F1200 X147.175 Y145.5 E19.42966
G1 X140.795 Y145.501 E19.62117
G1 X141.271 Y145.732 E19.63706
G1 X141.648 Y145.984 E19.65067
G1 X142.017 Y146.313 E19.66551
G1 X142.309 Y146.661 E19.67914
G1 X142.621 Y147.157 E19.69673
G1 X142.827 Y147.703 E19.71425
G1 X142.931 Y148.188 E19.72914
G1 X142.965 Y148.651 E19.74307
G1 X142.924 Y149.164 E19.75852
G1 X142.835 Y149.588 E19.77153
G1 X142.633 Y150.144 E19.78928
G1 X142.257 Y150.75 E19.81069
G1 X141.863 Y151.152 E19.82759
G1 X141.498 Y151.443 E19.8416
G1 X141.069 Y151.697 E19.85656
G1 X140.639 Y151.87 E19.87048
G1 X140.19 Y151.983 E19.88438
G1 X139.629 Y152.047 E19.90132
G1 X139.001 Y151.989 E19.92026
G1 X138.537 Y151.872 E19.93462
G1 X138.103 Y151.697 E19.94867
G1 X137.718 Y151.472 E19.96205
G1 X137.331 Y151.177 E19.97666
G1 X137.005 Y150.84 E19.99073
G1 X136.72 Y150.448 E20.00528
G1 X136.534 Y150.103 E20.01705
G1 X136.426 Y149.834 E20.02575
G1 X136.425 Y153 E20.12078
G1 X140.572 Y153 E20.24526
G1 X140.912 Y153.125 E20.25614
G1 X141.161 Y153.321 E20.26565
G1 X141.378 Y153.654 E20.27758
G1 X141.425 Y154 E20.28806
G1 X141.425 Y161.121 E20.50181
G1 X141.365 Y161.343 E20.50872
G1 X141.235 Y161.588 E20.51704
G1 X141.031 Y161.797 E20.52581
G1 X140.767 Y161.941 E20.53484
G1 X140.517 Y161.997 E20.54253
G1 X136.426 Y162.001 E20.66533
G1 X136.425 Y165.171 E20.76048
G1 X136.524 Y164.923 E20.7685
G1 X136.721 Y164.55 E20.78116
G1 X137.002 Y164.165 E20.79547
G1 X137.317 Y163.837 E20.80912
G1 X137.706 Y163.536 E20.82388
G1 X138.103 Y163.302 E20.83771
G1 X138.525 Y163.132 E20.85137
G1 X138.983 Y163.017 E20.86555
G1 X139.572 Y162.949 E20.88334
G1 X140.273 Y163.023 E20.9045
G1 X140.847 Y163.205 E20.92258
G1 X141.26 Y163.404 E20.93634
G1 X141.668 Y163.676 E20.95106
G1 X142.118 Y164.09 E20.96941
G1 X142.453 Y164.553 E20.98657
G1 X142.674 Y164.966 E21.00063
G1 X142.835 Y165.413 E21.01489
G1 X142.931 Y165.867 E21.02882
G1 X142.965 Y166.328 E21.04269
G1 X142.924 Y166.841 E21.05814
G1 X142.837 Y167.259 E21.07096
G1 X142.635 Y167.818 E21.0888
G1 X142.321 Y168.321 E21.1066
G1 X141.956 Y168.762 E21.12378
G1 X141.385 Y169.211 E21.14559
G1 X140.795 Y169.499 E21.16529
G1 X147.175 Y169.5 E21.3568
G0 F6000 X140.939 Y169.542
G0 X138.378 Y169.499
G1 F1200 X137.897 Y169.265 E21.37286
G1 X137.521 Y169.014 E21.38643
G1 X137.19 Y168.717 E21.39978
G1 X136.79 Y168.251 E21.41821
G1 X136.545 Y167.801 E21.43359
G1 X136.426 Y167.513 E21.44295
G1 X136.426 Y169.499 E21.50256
G1 X138.378 Y169.499 E21.56116
G0 F6000 X140.109 Y169.579
G0 X140.049 Y169.341
G1 F956.2 X139.438 Y169.358 E21.58418
G1 F941.2 X139.01 Y169.321 E21.60062
G1 F973.6 X138.761 Y169.22 E21.61057
G1 F1113.7 X138.512 Y169.119 E21.61926
G1 F1200 X138.136 Y168.937 E21.6318
G1 X137.804 Y168.721 E21.64368
G1 X137.464 Y168.426 E21.6572
G1 X137.118 Y168.018 E21.67325
G1 X136.877 Y167.575 E21.68839
G1 F1145.6 X136.782 Y167.32 E21.69695
G1 F1050.3 X136.687 Y167.065 E21.70628
G1 F969.7 X136.591 Y166.81 E21.7164
G1 F952.4 X136.565 Y166.404 E21.73179
G1 F961.9 X136.577 Y166.138 E21.74176
G1 F943 X136.59 Y165.872 E21.75193
G1 F989.7 X136.718 Y165.527 E21.76533
G1 F1121.5 X136.847 Y165.181 E21.77719
G1 F1200 X137.06 Y164.764 E21.79124
G1 X137.336 Y164.395 E21.80507
G1 X137.611 Y164.116 E21.81683
G1 X137.921 Y163.873 E21.82866
G1 X138.322 Y163.645 E21.8425
G1 X138.685 Y163.505 E21.85418
G1 X139.052 Y163.411 E21.86555
G1 X139.576 Y163.352 E21.88138
G1 X140.214 Y163.419 E21.90064
G1 X140.662 Y163.566 E21.91479
G1 X141.02 Y163.732 E21.92664
G1 X141.419 Y163.993 E21.94095
G1 X141.809 Y164.344 E21.9567
G1 X142.129 Y164.796 E21.97332
G1 X142.322 Y165.168 E21.9859
G1 X142.456 Y165.558 E21.99828
G1 X142.537 Y165.965 E22.01074
G1 X142.56 Y166.362 E22.02267
G1 X142.53 Y166.772 E22.03501
G1 X142.458 Y167.115 E22.04553
G1 X142.274 Y167.641 E22.06226
G1 X142.017 Y168.053 E22.07684
G1 X141.677 Y168.474 E22.09308
G1 X141.173 Y168.869 E22.1123
G1 X140.668 Y169.115 E22.12916
G1 F1124.1 X140.359 Y169.228 E22.13971
G1 F997.9 X140.049 Y169.341 E22.15162
G0 F6000 X139.971 Y168.894
;TYPE:WALL-OUTER
G1 F1200 X139.483 Y168.912 E22.16628
G1 X139.123 Y168.873 E22.17714
G1 X138.686 Y168.759 E22.1907
G1 X138.31 Y168.577 E22.20324
G1 X138.004 Y168.372 E22.2143
G1 X137.739 Y168.135 E22.22497
G1 X137.465 Y167.809 E22.23775
G1 X137.236 Y167.393 E22.25201
G1 X137.12 Y167.086 E22.26186
G1 X137.036 Y166.706 E22.27354
G1 X137.011 Y166.371 E22.28362
G1 X137.034 Y165.995 E22.29493
G1 X137.106 Y165.644 E22.30569
G1 X137.233 Y165.295 E22.31683
G1 X137.394 Y164.988 E22.32724
G1 X137.624 Y164.672 E22.33897
G1 X137.84 Y164.447 E22.34833
G1 X138.142 Y164.207 E22.35991
G1 X138.444 Y164.03 E22.37042
G1 X138.786 Y163.892 E22.38149
G1 X139.121 Y163.805 E22.39188
G1 X139.601 Y163.757 E22.40636
G1 X140.147 Y163.818 E22.42285
G1 X140.537 Y163.946 E22.43517
G1 X140.847 Y164.093 E22.44547
G1 X141.171 Y164.307 E22.45713
G1 X141.497 Y164.601 E22.4703
G1 X141.777 Y164.986 E22.48459
